/* XPM */
static char *app_32x32[] = {
/* columns rows colors chars-per-pixel */
"64 64 6 1 ",
"  c None",
". c black",
"X c #0000BF",
"o c #808080",
"O c #C0C0C0",
"+ c gray100",
/* pixels */
"                                                                ",
"                                                                ",
"                                                                ",
"                                                                ",
"oooooooooooooooooooooooooooooooooooooooooooooooooooooooooooooo..",
"oooooooooooooooooooooooooooooooooooooooooooooooooooooooooooooo..",
"ooOOOOOOOOOOOOOOOOOOOOOOOOOOOOOOOOOOOOOOOOOOOOOOOOOOOOOOOOOOoo..",
"ooOOOOOOOOOOOOOOOOOOOOOOOOOOOOOOOOOOOOOOOOOOOOOOOOOOOOOOOOOOoo..",
"ooOOXXXXXXXXXXXXXXXXXXXXXXXXXXXXXXXXXXXXXXXXXXXXXXXXXXXXXXXXoo..",
"ooOOXXXXXXXXXXXXXXXXXXXXXXXXXXXXXXXXXXXXXXXXXXXXXXXXXXXXXXXXoo..",
"ooOOXXXXXXXXXXXXXXXXXXXXXXXXXXXXXXXXXXXXXXOOOO..OOOO..OOOO..oo..",
"ooOOXXXXXXXXXXXXXXXXXXXXXXXXXXXXXXXXXXXXXXOOOO..OOOO..OOOO..oo..",
"ooOOXXXXXXXXXXXXXXXXXXXXXXXXXXXXXXXXXXXXXXOOOO..OOOO..OOOO..oo..",
"ooOOXXXXXXXXXXXXXXXXXXXXXXXXXXXXXXXXXXXXXXOOOO..OOOO..OOOO..oo..",
"ooOOXXXXXXXXXXXXXXXXXXXXXXXXXXXXXXXXXXXXXX..................oo..",
"ooOOXXXXXXXXXXXXXXXXXXXXXXXXXXXXXXXXXXXXXX..................oo..",
"ooOOOOOOOOOOOOOOOOOOOOOOOOOOOOOOOOOOOOOOOOOOOOOOOOOOOOOOOOOOoo..",
"ooOOOOOOOOOOOOOOOOOOOOOOOOOOOOOOOOOOOOOOOOOOOOOOOOOOOOOOOOOOoo..",
"ooOOooooooooooooooooooooooooooooooooooooooooooooooooooooooOOoo..",
"ooOOooooooooooooooooooooooooooooooooooooooooooooooooooooooOOoo..",
"ooOOoo++++++++++++++++++++++++++++++++++++++++++++++++++++OOoo..",
"ooOOoo++++++++++++++++++++++++++++++++++++++++++++++++++++OOoo..",
"ooOOoo++++++++++++++++++++++++++++++++++++++++++++++++++++OOoo..",
"ooOOoo++++++++++++++++++++++++++++++++++++++++++++++++++++OOoo..",
"ooOOoo++++++++++++++++++++++++++++++++++++++++++++++++++++OOoo..",
"ooOOoo++++++++++++++++++++++++++++++++++++++++++++++++++++OOoo..",
"ooOOoo++++++++++++++++++++++++++++++++++++++++++++++++++++OOoo..",
"ooOOoo++++++++++++++++++++++++++++++++++++++++++++++++++++OOoo..",
"ooOOoo++++++++++++++++++++++++++++++++++++++++++++++++++++OOoo..",
"ooOOoo++++++++++++++++++++++++++++++++++++++++++++++++++++OOoo..",
"ooOOoo++++++++++++++++++++++++++++++++++++++++++++++++++++OOoo..",
"ooOOoo++++++++++++++++++++++++++++++++++++++++++++++++++++OOoo..",
"ooOOoo++++++++++++++++++++++++++++++++++++++++++++++++++++OOoo..",
"ooOOoo++++++++++++++++++++++++++++++++++++++++++++++++++++OOoo..",
"ooOOoo++++++++++++++++++++++++++++++++++++++++++++++++++++OOoo..",
"ooOOoo++++++++++++++++++++++++++++++++++++++++++++++++++++OOoo..",
"ooOOoo++++++++++++++++++++++++++++++++++++++++++++++++++++OOoo..",
"ooOOoo++++++++++++++++++++++++++++++++++++++++++++++++++++OOoo..",
"ooOOoo++++++++++++++++++++++++++++++++++++++++++++++++++++OOoo..",
"ooOOoo++++++++++++++++++++++++++++++++++++++++++++++++++++OOoo..",
"ooOOoo++++++++++++++++++++++++++++++++++++++++++++++++++++OOoo..",
"ooOOoo++++++++++++++++++++++++++++++++++++++++++++++++++++OOoo..",
"ooOOoo++++++++++++++++++++++++++++++++++++++++++++++++++++OOoo..",
"ooOOoo++++++++++++++++++++++++++++++++++++++++++++++++++++OOoo..",
"ooOOoo++++++++++++++++++++++++++++++++++++++++++++++++++++OOoo..",
"ooOOoo++++++++++++++++++++++++++++++++++++++++++++++++++++OOoo..",
"ooOOoo++++++++++++++++++++++++++++++++++++++++++++++++++++OOoo..",
"ooOOoo++++++++++++++++++++++++++++++++++++++++++++++++++++OOoo..",
"ooOOoo++++++++++++++++++++++++++++++++++++++++++++++++++++OOoo..",
"ooOOoo++++++++++++++++++++++++++++++++++++++++++++++++++++OOoo..",
"ooOOoo++++++++++++++++++++++++++++++++++++++++++++++++++++OOoo..",
"ooOOoo++++++++++++++++++++++++++++++++++++++++++++++++++++OOoo..",
"ooOOoo++++++++++++++++++++++++++++++++++++++++++++++++++++OOoo..",
"ooOOoo++++++++++++++++++++++++++++++++++++++++++++++++++++OOoo..",
"ooOOoo++++++++++++++++++++++++++++++++++++++++++++++++++++OOoo..",
"ooOOoo++++++++++++++++++++++++++++++++++++++++++++++++++++OOoo..",
"ooOOOOOOOOOOOOOOOOOOOOOOOOOOOOOOOOOOOOOOOOOOOOOOOOOOOOOOOOOOoo..",
"ooOOOOOOOOOOOOOOOOOOOOOOOOOOOOOOOOOOOOOOOOOOOOOOOOOOOOOOOOOOoo..",
"oooooooooooooooooooooooooooooooooooooooooooooooooooooooooooooo..",
"oooooooooooooooooooooooooooooooooooooooooooooooooooooooooooooo..",
"................................................................",
"................................................................",
"                                                                ",
"                                                                "
};
