/* XPM */
static char *app_16x16[] = {
/* columns rows colors chars-per-pixel */
"32 32 6 1 ",
"  c None",
". c black",
"X c #0000BF",
"o c #808080",
"O c #C0C0C0",
"+ c gray100",
/* pixels */
"                                ",
"                                ",
"oooooooooooooooooooooooooooooooo",
"oooooooooooooooooooooooooooooooo",
"ooOOOOOOOOOOOOOOOOOOOOOOOOOOoo..",
"ooOOOOOOOOOOOOOOOOOOOOOOOOOOoo..",
"ooOOXXXXXXXXXXXXXXXXXXXXXXXXoo..",
"ooOOXXXXXXXXXXXXXXXXXXXXXXXXoo..",
"ooOOXXXXXXXXXXXX++..++..++..oo..",
"ooOOXXXXXXXXXXXX++..++..++..oo..",
"ooOOoooooooooooooooooooooooooo..",
"ooOOoooooooooooooooooooooooooo..",
"ooOO++++++++++++++++++++++++oo..",
"ooOO++++++++++++++++++++++++oo..",
"ooOO++++++++++++++++++++++++oo..",
"ooOO++++++++++++++++++++++++oo..",
"ooOO++++++++++++++++++++++++oo..",
"ooOO++++++++++++++++++++++++oo..",
"ooOO++++++++++++++++++++++++oo..",
"ooOO++++++++++++++++++++++++oo..",
"ooOO++++++++++++++++++++++++oo..",
"ooOO++++++++++++++++++++++++oo..",
"ooOO++++++++++++++++++++++++oo..",
"ooOO++++++++++++++++++++++++oo..",
"ooOO++++++++++++++++++++++++oo..",
"ooOO++++++++++++++++++++++++oo..",
"oooooooooooooooooooooooooooooo..",
"oooooooooooooooooooooooooooooo..",
"................................",
"................................",
"                                ",
"                                "
};
