/* XPM */
static char *excel_16x16[] = {
/* columns rows colors chars-per-pixel */
"32 32 3 1 ",
"  c #008000",
". c #808080",
"X c gray100",
/* pixels */
"..  ..  ..  ..  ..  ..  ..  ..  ",
"..  ..  ..  ..  ..  ..  ..  ..  ",
"  ..  ..  ..  ..  ..  ..  ..  ..",
"  ..  ..  ..  ..  ..  ..  ..  ..",
"..  XXXXXXXXXXXXXXXXXXXXXXXX..  ",
"..  XXXXXXXXXXXXXXXXXXXXXXXX..  ",
"  ..XX  ..  ..XXXXXX..  ..XX  ..",
"  ..XX  ..  ..XXXXXX..  ..XX  ..",
"..  XX..  ..  ..XX..  ..  XX..  ",
"..  XX..  ..  ..XX..  ..  XX..  ",
"  ..XX  XX  ..  ..  ..  ..XX  ..",
"  ..XX  XX  ..  ..  ..  ..XX  ..",
"..  XXXX  XX  ..  ..  ..XXXX..  ",
"..  XXXX  XX  ..  ..  ..XXXX..  ",
"  ..XXXXXX  XX  ..  ..XXXXXX  ..",
"  ..XXXXXX  XX  ..  ..XXXXXX  ..",
"..  XXXX  ..  XX  ..  ..  XX..  ",
"..  XXXX  ..  XX  ..  ..  XX..  ",
"  ..XX  ..  ..  XX  ..  ..XX  ..",
"  ..XX  ..  ..  XX  ..  ..XX  ..",
"..  XX..  ..  ..  XX  ..  XX..  ",
"..  XX..  ..  ..  XX  ..  XX..  ",
"  ..XX  ..  ..  ..  XX  ..    ..",
"  ..XX  ..  ..  ..  XX  ..    ..",
"..  XXXXXXXXXXXXXX..  ..  ....  ",
"..  XXXXXXXXXXXXXX..  ..  ....  ",
"  ..XXXXXXXXXXXXXXXXXXXXXXXX  ..",
"  ..XXXXXXXXXXXXXXXXXXXXXXXX  ..",
"..  ..  ..  ..  ..  ..  ..  ..  ",
"..  ..  ..  ..  ..  ..  ..  ..  ",
"  ..  ..  ..  ..  ..  ..  ..  ..",
"  ..  ..  ..  ..  ..  ..  ..  .."
};
