/* XPM */
static char *excel_32x32[] = {
/* columns rows colors chars-per-pixel */
"64 64 4 1 ",
"  c None",
". c #008000",
"X c #808080",
"o c white",
/* pixels */
"                                                                ",
"                                                                ",
"                                                                ",
"                                                                ",
"    ..XX..XX..XX..XX..XX..XX..XX..XX..XX..XX..XX..XX..XX..XX    ",
"    ..XX..XX..XX..XX..XX..XX..XX..XX..XX..XX..XX..XX..XX..XX    ",
"    XX..XX..XX..XX..XX..XX..XX..XX..XX..XX..XX..XX..XX..XX..    ",
"    XX..XX..XX..XX..XX..XX..XX..XX..XX..XX..XX..XX..XX..XX..    ",
"    ..XX..XX..XX..XX..XX..XX..XX..XX..XX..XX..XX..XX..XX..XX    ",
"    ..XX..XX..XX..XX..XX..XX..XX..XX..XX..XX..XX..XX..XX..XX    ",
"    XX..XXoooooooooooooooooooooooooooooooooooooooooooo..XX..    ",
"    XX..XXoooooooooooooooooooooooooooooooooooooooooooo..XX..    ",
"    ..XX..ooooooooooooooooooooooooooooooooooooooooooooXX..XX    ",
"    ..XX..ooooooooooooooooooooooooooooooooooooooooooooXX..XX    ",
"    XX..XXoooooooooooooooooooooooooooooooooooooooooooo..XX..    ",
"    XX..XXoooooooooooooooooooooooooooooooooooooooooooo..XX..    ",
"    ..XX..ooXX..XX..XX..XXooooooooooXX..XX..XX..XXooooXX..XX    ",
"    ..XX..ooXX..XX..XX..XXooooooooooXX..XX..XX..XXooooXX..XX    ",
"    XX..XXoo..oo..XX..XX..XXooooooXX..XX..XX..XX..oooo..XX..    ",
"    XX..XXoo..oo..XX..XX..XXooooooXX..XX..XX..XX..oooo..XX..    ",
"    ..XX..oooo..oo..XX..XX..XXooXX..XX..XX..XX..ooooooXX..XX    ",
"    ..XX..oooo..oo..XX..XX..XXooXX..XX..XX..XX..ooooooXX..XX    ",
"    XX..XXoooooo..oo..XX..XX..XX..XX..XX..XX..oooooooo..XX..    ",
"    XX..XXoooooo..oo..XX..XX..XX..XX..XX..XX..oooooooo..XX..    ",
"    ..XX..oooooooo..oo..XX..XX..XX..XX..XX..ooooooooooXX..XX    ",
"    ..XX..oooooooo..oo..XX..XX..XX..XX..XX..ooooooooooXX..XX    ",
"    XX..XXoooooooooo..oo..XX..XX..XX..XX..oooooooooooo..XX..    ",
"    XX..XXoooooooooo..oo..XX..XX..XX..XX..oooooooooooo..XX..    ",
"    ..XX..oooooooooooo..oo..XX..XX..XX..ooooooooooooooXX..XX    ",
"    ..XX..oooooooooooo..oo..XX..XX..XX..ooooooooooooooXX..XX    ",
"    XX..XXooooooooooooXX..oo..XX..XX..XXoooooooooooooo..XX..    ",
"    XX..XXooooooooooooXX..oo..XX..XX..XXoooooooooooooo..XX..    ",
"    ..XX..ooooooooooXX..XX..oo..XX..XX..XX..XX..XXooooXX..XX    ",
"    ..XX..ooooooooooXX..XX..oo..XX..XX..XX..XX..XXooooXX..XX    ",
"    XX..XXooooooooXX..XX..XX..oo..XX..XX..XX..XX..oooo..XX..    ",
"    XX..XXooooooooXX..XX..XX..oo..XX..XX..XX..XX..oooo..XX..    ",
"    ..XX..ooooooXX..XX..XX..XX..oo..XX..XX..XX..ooooooXX..XX    ",
"    ..XX..ooooooXX..XX..XX..XX..oo..XX..XX..XX..ooooooXX..XX    ",
"    XX..XXooooXX..XX..XX..XX..XX..oo..XX..XX..XXoooooo..XX..    ",
"    XX..XXooooXX..XX..XX..XX..XX..oo..XX..XX..XXoooooo..XX..    ",
"    ..XX..ooXX..XX..XX..XX..XX..XX..oo..XX..XX..XXooooXX..XX    ",
"    ..XX..ooXX..XX..XX..XX..XX..XX..oo..XX..XX..XXooooXX..XX    ",
"    XX..XXoo..XX..XX..XX..XX..XX..XX..XX..XX..XX..XXoo..XX..    ",
"    XX..XXoo..XX..XX..XX..XX..XX..XX..XX..XX..XX..XXoo..XX..    ",
"    ..XX..oooooooooooooooooooooooooooo..XX..XX..XX..ooXX..XX    ",
"    ..XX..oooooooooooooooooooooooooooo..XX..XX..XX..ooXX..XX    ",
"    XX..XXoooooooooooooooooooooooooooooooooooooooooooo..XX..    ",
"    XX..XXoooooooooooooooooooooooooooooooooooooooooooo..XX..    ",
"    ..XX..ooooooooooooooooooooooooooooooooooooooooooooXX..XX    ",
"    ..XX..ooooooooooooooooooooooooooooooooooooooooooooXX..XX    ",
"    XX..XXoooooooooooooooooooooooooooooooooooooooooooo..XX..    ",
"    XX..XXoooooooooooooooooooooooooooooooooooooooooooo..XX..    ",
"    ..XX..ooooooooooooooooooooooooooooooooooooooooooooXX..XX    ",
"    ..XX..ooooooooooooooooooooooooooooooooooooooooooooXX..XX    ",
"    XX..XX..XX..XX..XX..XX..XX..XX..XX..XX..XX..XX..XX..XX..    ",
"    XX..XX..XX..XX..XX..XX..XX..XX..XX..XX..XX..XX..XX..XX..    ",
"    ..XX..XX..XX..XX..XX..XX..XX..XX..XX..XX..XX..XX..XX..XX    ",
"    ..XX..XX..XX..XX..XX..XX..XX..XX..XX..XX..XX..XX..XX..XX    ",
"    XX..XX..XX..XX..XX..XX..XX..XX..XX..XX..XX..XX..XX..XX..    ",
"    XX..XX..XX..XX..XX..XX..XX..XX..XX..XX..XX..XX..XX..XX..    ",
"                                                                ",
"                                                                ",
"                                                                ",
"                                                                "
};
