/* XPM */
static char *explorer_16x16[] = {
/* columns rows colors chars-per-pixel */
"32 32 13 1 ",
"  c None",
". c black",
"X c gray50",
"o c #838300",
"O c #9B9B00",
"+ c #CDCD63",
"@ c #000084",
"# c blue",
"$ c cyan",
"% c #FECE9B",
"& c #FEFE9C",
"* c #FBF4CF",
"= c #E1E1E1",
/* pixels */
"    OOOOOOOOOO..                ",
"    OOOOOOOOOO..                ",
"  OO==****&&&&OO..              ",
"  OO==****&&&&OO..              ",
"OO++++++++++++++OOOOOOOOOOOO    ",
"OO++++++++++++++OOOOOOOOOOOO    ",
"OO****%%XXXX..XX********&&++..  ",
"OO****%%XXXX..XX********&&++..  ",
"OO**%%XX**$$==..XX&&&&&&%%++..  ",
"OO**%%XX**$$==..XX&&&&&&%%++..  ",
"OO**XX**$$**$$==..%%&&%%&&++..  ",
"OO**XX**$$**$$==..%%&&%%&&++..  ",
"OO**XX$$**$$==$$..%%%%&&%%++..  ",
"OO**XX$$**$$==$$..%%%%&&%%++..  ",
"OO**XX**$$==$$==..%%&&%%&&++..  ",
"OO**XX**$$==$$==..%%&&%%&&++..  ",
"OO**%%XXXX$$==..XXoo%%&&%%++..  ",
"OO**%%XXXX$$==..XXoo%%&&%%++..  ",
"OO**&&%%XX....XX==####%%%%++..  ",
"OO**&&%%XX....XX==####%%%%++..  ",
"OO**%%&&%%&&%%%%@@$$####%%++..  ",
"OO**%%&&%%&&%%%%@@$$####%%++..  ",
"OO++++++++++++++OO@@$$####OO..  ",
"OO++++++++++++++OO@@$$####OO..  ",
"  ..................@@$$####..  ",
"  ..................@@$$####..  ",
"                      @@$$##..  ",
"                      @@$$##..  ",
"                        ....    ",
"                        ....    ",
"                                ",
"                                "
};
