/* XPM */
static char *file_16x16[] = {
/* columns rows colors chars-per-pixel */
"32 32 16 1 ",
"  c None",
". c gray3",
"X c #555555",
"o c #800000",
"O c red",
"+ c #008000",
"@ c #FFCC33",
"# c #000099",
"$ c blue",
"% c cyan",
"& c #868686",
"* c gray60",
"= c #CBCBCB",
"- c gray80",
"; c #E7E7D6",
": c gray100",
/* pixels */
"  &&&&&&&&&&&&&&&&&&&&**        ",
"  &&&&&&&&&&&&&&&&&&&&**        ",
"  &&;;;;;;;;;;;;;;;;;;**XX      ",
"  &&;;;;;;;;;;;;;;;;;;**XX      ",
"  &&::::::::::::::::::**::XX    ",
"  &&::::::::::::::::::**::XX    ",
"  &&::::::::::::::::::**XXXXXX  ",
"  &&::::::::::::::::::**XXXXXX  ",
"  &&::&&&&&&&&&&&&&&&&&&..==XX  ",
"  &&::&&&&&&&&&&&&&&&&&&..==XX  ",
"  &&::&&##@@############..::XX  ",
"  &&::&&##@@############..::XX  ",
"  &&::&&################..::XX  ",
"  &&::&&################..::XX  ",
"  &&::&&::::::::::::::;;..::XX  ",
"  &&::&&::::::::::::::;;..::XX  ",
"  &&::&&::  oo::::$$::;;..::XX  ",
"  &&::&&::  oo::::$$::;;..::XX  ",
"  &&::&&::ooOO::$$%%$$;;..::XX  ",
"  &&::&&::ooOO::$$%%$$;;..::XX  ",
"  &&::&&::::oo::::++++;;..::XX  ",
"  &&::&&::::oo::::++++;;..::XX  ",
"  &&::&&;;;;;;;;;;;;;;;;..::XX  ",
"  &&::&&;;;;;;;;;;;;;;;;..::XX  ",
"  &&::....................::XX  ",
"  &&::....................::XX  ",
"  &&::::::::::::::::::::::::XX  ",
"  &&::::::::::::::::::::::::XX  ",
"  &&------------------------XX  ",
"  &&------------------------XX  ",
"  XXXXXXXXXXXXXXXXXXXXXXXXXXXX  ",
"  XXXXXXXXXXXXXXXXXXXXXXXXXXXX  "
};
