/* XPM */
static char *file_32x32[] = {
/* columns rows colors chars-per-pixel */
"64 64 22 1 ",
"  c None",
". c #0C0C0C",
"X c gray20",
"o c gray30",
"O c #555555",
"+ c #777777",
"@ c #800000",
"# c red",
"$ c #008000",
"% c green",
"& c #CC9933",
"* c #FFCC33",
"= c navy",
"- c #000099",
"; c blue",
": c #800080",
"> c cyan",
", c #868686",
"< c gray60",
"1 c gray80",
"2 c #E7E7D6",
"3 c gray100",
/* pixels */
"      ,,,,,,,,,,,,,,,,,,,,,,,,,,,,,,,,,,,,,,<<                  ",
"      ,,,,,,,,,,,,,,,,,,,,,,,,,,,,,,,,,,,,,,<<                  ",
"      ,,222222222222222222222222222222222222<<OO                ",
"      ,,222222222222222222222222222222222222<<OO                ",
"      ,,223333333333333333333333333333333333<<11OO              ",
"      ,,223333333333333333333333333333333333<<11OO              ",
"      ,,223333333333333333333333333333333333<<2211OO            ",
"      ,,223333333333333333333333333333333333<<2211OO            ",
"      ,,223333333333333333333333333333333333<<332211OO          ",
"      ,,223333333333333333333333333333333333<<332211OO          ",
"      ,,223333333333333333333333333333333333<<33332211OO        ",
"      ,,223333333333333333333333333333333333<<33332211OO        ",
"      ,,223333333333333333333333333333333333<<ooooXXXXXXXX      ",
"      ,,223333333333333333333333333333333333<<ooooXXXXXXXX      ",
"      ,,223333333333333333333333333333333333332211<<++++OO      ",
"      ,,223333333333333333333333333333333333332211<<++++OO      ",
"      ,,223333,,,,,,,,,,,,,,,,,,,,,,,,,,,,,,,,,,..11<<++OO      ",
"      ,,223333,,,,,,,,,,,,,,,,,,,,,,,,,,,,,,,,,,..11<<++OO      ",
"      ,,223333,,**------------------33==33==33==..2211<<OO      ",
"      ,,223333,,**------------------33==33==33==..2211<<OO      ",
"      ,,223333,,&&------------------============..332211OO      ",
"      ,,223333,,&&------------------============..332211OO      ",
"      ,,223333,,11111111111111111111111111111111..333311OO      ",
"      ,,223333,,11111111111111111111111111111111..333311OO      ",
"      ,,223333,,22222222222222222222222222222211..333311OO      ",
"      ,,223333,,22222222222222222222222222222211..333311OO      ",
"      ,,223333,,22333333333333333333333333332211..333311OO      ",
"      ,,223333,,22333333333333333333333333332211..333311OO      ",
"      ,,223333,,22333333333333333333333333332211..333311OO      ",
"      ,,223333,,22333333333333333333333333332211..333311OO      ",
"      ,,223333,,223333##@@33;;33333333$$33332211..333311OO      ",
"      ,,223333,,223333##@@33;;33333333$$33332211..333311OO      ",
"      ,,223333,,2233##  @@33>>;;;;3333$$$$332211..333311OO      ",
"      ,,223333,,2233##  @@33>>;;;;3333$$$$332211..333311OO      ",
"      ,,223333,,2233@@##@@33;;;;1133$$%%;;332211..333311OO      ",
"      ,,223333,,2233@@##@@33;;;;1133$$%%;;332211..333311OO      ",
"      ,,223333,,223311@@333311::::33$$$$$$332211..333311OO      ",
"      ,,223333,,223311@@333311::::33$$$$$$332211..333311OO      ",
"      ,,223333,,22333333333333333333333333332211..333311OO      ",
"      ,,223333,,22333333333333333333333333332211..333311OO      ",
"      ,,223333,,2233,,,,,,33,,,,,,33,,,,,,332211..333311OO      ",
"      ,,223333,,2233,,,,,,33,,,,,,33,,,,,,332211..333311OO      ",
"      ,,223333,,22333333333333333333333333332211..333311OO      ",
"      ,,223333,,22333333333333333333333333332211..333311OO      ",
"      ,,223333,,22222222222222222222222222222211..333311oo      ",
"      ,,223333,,22222222222222222222222222222211..333311oo      ",
"      ,,223333,,11111111111111111111111111111111..333311OO      ",
"      ,,223333,,11111111111111111111111111111111..333311OO      ",
"      ,,223333....................................333311OO      ",
"      ,,223333....................................333311OO      ",
"      ,,223333333333333333333333333333333333333333333311OO      ",
"      ,,223333333333333333333333333333333333333333333311OO      ",
"      ,,223333333333333333333333333333333333333333333311OO      ",
"      ,,223333333333333333333333333333333333333333333311OO      ",
"      ,,223333333333333333333333333333333333333333333311OO      ",
"      ,,223333333333333333333333333333333333333333333311OO      ",
"      ,,223333333333333333333333333333333333333333333311OO      ",
"      ,,223333333333333333333333333333333333333333333311OO      ",
"      ,,223333333333333333333333333333333333333333333311OO      ",
"      ,,223333333333333333333333333333333333333333333311OO      ",
"      ,,221111111111111111111111111111111111111111111111OO      ",
"      ,,221111111111111111111111111111111111111111111111OO      ",
"      OOOOOOOOOOOOOOOOOOOOOOOOOOOOOOOOOOOOOOOOOOOOOOOOOOOO      ",
"      OOOOOOOOOOOOOOOOOOOOOOOOOOOOOOOOOOOOOOOOOOOOOOOOOOOO      "
};
