/* XPM */
static char *folder2_16x16[] = {
/* columns rows colors chars-per-pixel */
"32 32 15 1 ",
"  c None",
". c #242425",
"X c #840000",
"o c #FF0103",
"O c #259E64",
"+ c #848600",
"@ c #FDFF30",
"# c #CDCF62",
"$ c #000083",
"% c #622FFD",
"& c #838583",
"* c #FECE9C",
"= c #FEFE9B",
"- c #C5C7C5",
"; c #FEFEFE",
/* pixels */
"    ++++++++++..                ",
"    ++++++++++..                ",
"  ++;;========++..              ",
"  ++;;========++..              ",
"++##############++++++++++++    ",
"++##############++++++++++++    ",
"++;;======**==**==**==**==##..  ",
"++;;======**==**==**==**==##..  ",
"++;;====**##################..  ",
"++;;====**##################..  ",
"++;;==**&&&&&&&&&&&&&&&&&&&&&&&&",
"++;;==**&&&&&&&&&&&&&&&&&&&&&&&&",
"++;;====&&$$$$$$$$$$$$$$$$$$$$..",
"++;;====&&$$$$$$$$$$$$$$$$$$$$..",
"++;;==**&&$$$$$$$$$$$$$$$$$$$$..",
"++;;==**&&$$$$$$$$$$$$$$$$$$$$..",
"++;;**==&&--------------------..",
"++;;**==&&--------------------..",
"++;;==**&&--;;;;;;;;;;;;;;;;--..",
"++;;==**&&--;;;;;;;;;;;;;;;;--..",
"++;;**==&&--;;@@XX;;;;%%;;;;--..",
"++;;**==&&--;;@@XX;;;;%%;;;;--..",
"++######&&--XXooXX;;OOOO%%;;--..",
"++######&&--XXooXX;;OOOO%%;;--..",
"  ......&&--;;XX;;;;;;OOOO;;--..",
"  ......&&--;;XX;;;;;;OOOO;;--..",
"        &&--;;;;;;;;;;;;;;;;--..",
"        &&--;;;;;;;;;;;;;;;;--..",
"        &&--------------------..",
"        &&--------------------..",
"        ........................",
"        ........................"
};
