/* XPM */
static char *folder_16x16[] = {
/* columns rows colors chars-per-pixel */
"32 32 59 1 ",
"  c None",
". c #716434",
"X c #124764",
"o c #124778",
"O c #606C56",
"+ c #475875",
"@ c #AE7C16",
"# c #B07E18",
"$ c #8B7235",
"% c #817974",
"& c #BD6261",
"* c #D4715F",
"= c #E47D64",
"- c #4C9A01",
"; c #76AE01",
": c #3FCD51",
"> c #B4821C",
", c #BA8722",
"< c #BC8924",
"1 c #AC8635",
"2 c #C28F2A",
"3 c #C5922D",
"4 c #CA9732",
"5 c #998043",
"6 c #DFA06D",
"7 c #91C673",
"8 c #FFCC67",
"9 c #F3CD6D",
"0 c #FFE07B",
"q c #015FA6",
"w c #1E6AAD",
"e c #6B9994",
"r c #4685B8",
"t c #65ACD8",
"y c #78B2DC",
"u c #6AB4E5",
"i c #A498B3",
"p c #E19888",
"a c #ECAA91",
"s c #EEAF93",
"d c #EBDB9E",
"f c #FFE883",
"g c #FFF48E",
"h c #FFFF99",
"j c #DAD9A6",
"k c #908FC8",
"l c #9AB2C5",
"z c #8CBFE2",
"x c #B3CED9",
"c c #C3C0CD",
"v c #C7CBCD",
"b c #C7D4D8",
"n c #D9D5D3",
"m c #F1D8C1",
"M c #DBE3DB",
"N c #EAE1D1",
"B c #EFEAD8",
"V c #DFE7E0",
"C c gray100",
/* pixels */
"                                ",
"                                ",
"      44444433                  ",
"      44444433                  ",
"    44CCCCCCCC22                ",
"    44CCCCCCCC22                ",
"  44CChhhhhhhhCC<<,,>>>>>>##    ",
"  44CChhhhhhhhCC<<,,>>>>>>##    ",
"  44ggggggggggggCCCCCCCCCC@@    ",
"  44ggggggggggggCCCCCCCCCC@@    ",
"  44ggff333322222233<<<<,,>><<22",
"  44ggff333322222233<<<<,,>><<22",
"  330011wwqqqqqqqqqqqqwwrrrr%%..",
"  330011wwqqqqqqqqqqqqwwrrrr%%..",
"  338855ttyyyyyyyyyyyyyyzzzzllOO",
"  338855ttyyyyyyyyyyyyyyzzzzllOO",
"  <<8855vv--77BBaa&&mmBBiiiiBB55",
"  <<8855vv--77BBaa&&mmBBiiiiBB55",
"  <<8855vv;;77BBaa**mmBB66kkVV55",
"  <<8855vv;;77BBaa**mmBB66kkVV55",
"  <<88$$vvccnnBBnnvvBBBBbbbbVV55",
"  <<88$$vvccnnBBnnvvBBBBbbbbVV55",
"  <<88$$vv99jjBBMMttMMBBppssVV55",
"  <<88$$vv99jjBBMMttMMBBppssVV55",
"    ##$$vveejjNNbb::MMBBwwppBB++",
"    ##$$vveejjNNbb::MMBBwwppBB++",
"      oocc99ddNNxxuunnBB==ssBB++",
"      oocc99ddNNxxuunnBB==ssBB++",
"      oovvBBBBBBBBBBBBBBBBBBBB++",
"      oovvBBBBBBBBBBBBBBBBBBBB++",
"        XXXXXXXXXXooXXXXXXXXXX  ",
"        XXXXXXXXXXooXXXXXXXXXX  "
};
