/* XPM */
static char *help_16x16[] = {
/* columns rows colors chars-per-pixel */
"32 32 8 1 ",
"  c None",
". c black",
"X c #7B7B00",
"o c #7B007B",
"O c #7B7B7B",
"+ c yellow",
"@ c gray74",
"# c white",
/* pixels */
"              oo..              ",
"              oo..              ",
"            ooOOoo....          ",
"            ooOOoo....          ",
"          ooOOoooooooo....      ",
"          ooOOoooooooo....      ",
"        ooOOoooooooooooooo....  ",
"        ooOOoooooooooooooo....  ",
"      ooOOoooo++++++XXoooooo..  ",
"      ooOOoooo++++++XXoooooo..  ",
"    ooOOooooXXXXoo++++oooo....  ",
"    ooOOooooXXXXoo++++oooo....  ",
"  ooOOoooooooo@@++++oooo..OO..  ",
"  ooOOoooooooo@@++++oooo..OO..  ",
"ooOOoooooooo++XXoooooo..OO@@....",
"ooOOoooooooo++XXoooooo..OO@@....",
"oo....oooooooooooooo..OO@@@@oo..",
"oo....oooooooooooooo..OO@@@@oo..",
"ooOOOO....oooooooo..OO@@@@oo..  ",
"ooOOOO....oooooooo..OO@@@@oo..  ",
"ooOO##OOOO....oo..OO@@@@oo..    ",
"ooOO##OOOO....oo..OO@@@@oo..    ",
"..OO@@####OOOO..OO@@@@oo..      ",
"..OO@@####OOOO..OO@@@@oo..      ",
"  ....OO@@####OO@@@@oo..        ",
"  ....OO@@####OO@@@@oo..        ",
"      ....OO@@##@@oo..          ",
"      ....OO@@##@@oo..          ",
"          ....OOoo..            ",
"          ....OOoo..            ",
"              ....              ",
"              ....              "
};
