/* XPM */
static char *hibernate_16x16[] = {
/* columns rows colors chars-per-pixel */
"32 32 30 1 ",
"  c None",
". c #DA8E15",
"X c #EAAD11",
"o c #E29824",
"O c #E2A324",
"+ c #FCA624",
"@ c #FCAD2F",
"# c #FCB438",
"$ c #F8C912",
"% c #FCD519",
"& c #FCC12F",
"* c #FCC834",
"= c #FCDA3C",
"- c #FCBA48",
"; c #FCBE54",
": c #DCBC7F",
"> c #FCDA58",
", c #FCC466",
"< c #FCD06F",
"1 c #D6B685",
"2 c #F9CB80",
"3 c #FCD18C",
"4 c #FCD797",
"5 c #FCE294",
"6 c #D8C3AC",
"7 c #FCDEA7",
"8 c #E4D6BC",
"9 c #FCE5B8",
"0 c #FCE8C5",
"q c #FCF2DA",
/* pixels */
"  8877447744443344334433333366  ",
"  8877447744443344334433333366  ",
"88222222,,,,,,;;,,------@@@@oo66",
"88222222,,,,,,;;,,------@@@@oo66",
"7722442222,,,,,,,,;;;;;;--##oo11",
"7722442222,,,,,,,,;;;;;;--##oo11",
"44224422,,,,,,0000----##@@@@oo11",
"44224422,,,,,,0000----##@@@@oo11",
"44,,22<<2299;;9900;;33##@@@@oo11",
"44,,22<<2299;;9900;;33##@@@@oo11",
"44,,,,,,0000;;0099--0044@@@@oo11",
"44,,,,,,0000;;0099--0044@@@@oo11",
"44;;,,33qq,,--9900##;;qq--@@oo11",
"44;;,,33qq,,--9900##;;qq--@@oo11",
"44--;;7799;;--7755&&##00>>##XX11",
"44--;;7799;;--7755&&##00>>##XX11",
"33--;;7799;;;;--##****99>>&&OO::",
"33--;;7799;;;;--##****99>>&&OO::",
"33##;;4499;;**--****==qq>>%%XX::",
"33##;;4499;;**--****==qq>>%%XX::",
"33##--,,qq<<----****3300%%%%XX::",
"33##--,,qq<<----****3300%%%%XX::",
"22@@##;;44qq77<<3399qq>>%%%%XX::",
"22@@##;;44qq77<<3399qq>>%%%%XX::",
"22++@@####,,77777755==%%%%%%XX::",
"22++@@####,,77777755==%%%%%%XX::",
"22++++@@########**%%%%$$%%$$XX::",
"22++++@@########**%%%%$$%%$$XX::",
"66..........OOOOXXXXXXXXXXXX..66",
"66..........OOOOXXXXXXXXXXXX..66",
"  6611111111::::::11::::::::66  ",
"  6611111111::::::11::::::::66  "
};
