/* XPM */
static char *lock_16x16[] = {
/* columns rows colors chars-per-pixel */
"32 32 31 1 ",
"  c None",
". c #0077AA",
"X c #007BAE",
"o c #0B80B2",
"O c #338CB8",
"+ c #2A92BD",
"@ c #478DB7",
"# c #4694BE",
"$ c #5892BB",
"% c #6499BC",
"& c #759DBE",
"* c #5497C1",
"= c #689AC0",
"- c #729CC2",
"; c #59A6CC",
": c #7CA2C5",
"> c #79ABCC",
", c #70B0D1",
"< c #85AAC8",
"1 c #8BB2CF",
"2 c #9ABAD4",
"3 c #A4BDD3",
"4 c #9DC1D8",
"5 c #9ECEE6",
"6 c #B5D4E9",
"7 c #C5CBF9",
"8 c #D6E9F6",
"9 c #EEF9FF",
"0 c #F1FBFF",
"q c #FBFFFF",
"w c gray100",
/* pixels */
"  wwwwwwwwwwwwwwwwwwwwwwwwwwww  ",
"  wwwwwwwwwwwwwwwwwwwwwwwwwwww  ",
"ww7722++++++++OO##**$$**==1177ww",
"ww7722++++++++OO##**$$**==1177ww",
"ww44....ooXX++;;;;OO@@@@@@$$<<ww",
"ww44....ooXX++;;;;OO@@@@@@$$<<ww",
"wwOO....oo,,wwwwwwww>>@@$$%%--ww",
"wwOO....oo,,wwwwwwww>>@@$$%%--ww",
"ww++XXXX++ww99,,11wwww==$$%%<<ww",
"ww++XXXX++ww99,,11wwww==$$%%<<ww",
"ww++XXXX55ww**@@@@11ww22%%--::ww",
"ww++XXXX55ww**@@@@11ww22%%--::ww",
"ww++XXOO,,55@@@@**$$6622%%&&::ww",
"ww++XXOO,,55@@@@**$$6622%%&&::ww",
"wwOOoo##00wwwwwwwwqqww99&&::<<ww",
"wwOOoo##00wwwwwwwwqqww99&&::<<ww",
"qq$$OO,,qq886666666600ww&&<<<<ww",
"qq$$OO,,qq886666666600ww&&<<<<ww",
"ww##OO>>ww>>$$%%%%--77qq::11::ww",
"ww##OO>>ww>>$$%%%%--77qq::11::ww",
"ww**OO>>ww<<$$%%--&&88qq<<11<<ww",
"ww**OO>>ww<<$$%%--&&88qq<<11<<ww",
"qq==@@<<ww0099999999qqqq<<2211ww",
"qq==@@<<ww0099999999qqqq<<2211ww",
"ww==@@==8899999900000088223311ww",
"ww==@@==8899999900000088223311ww",
"ww<<$$$$%%&&&&<<<<<<2222333311ww",
"ww<<$$$$%%&&&&<<<<<<2222333311ww",
"ww77<<::::::<<::<<>><<11223377ww",
"ww77<<::::::<<::<<>><<11223377ww",
"  wwwwwwwwwwwwwwwwwwwwwwwwwwww  ",
"  wwwwwwwwwwwwwwwwwwwwwwwwwwww  "
};
