/* XPM */
static char *logout_16x16[] = {
/* columns rows colors chars-per-pixel */
"32 32 30 1 ",
"  c None",
". c #B57607",
"X c #B37719",
"o c #B67C22",
"O c #D38F0B",
"+ c #D9A013",
"@ c #E3AF16",
"# c #D89427",
"$ c #D99939",
"% c #DDA533",
"& c #E4B12C",
"* c #DC9D43",
"= c #DEA249",
"- c #DFA551",
"; c #E4B44C",
": c #E1A95B",
"> c #E2AE63",
", c #E4B269",
"< c #E5B876",
"1 c #D9B887",
"2 c #E8BF81",
"3 c #E9C58A",
"4 c #ECC995",
"5 c #EFD3A6",
"6 c #F1D9B4",
"7 c #F3DFC1",
"8 c #F7E9D0",
"9 c #FAF3E6",
"0 c #FAF9F8",
"q c gray100",
/* pixels */
"  00qqqqqqqqqqqqqqqqqqqqqq0000  ",
"  00qqqqqqqqqqqqqqqqqqqqqq0000  ",
"0066<<>>::----==--****$$####1100",
"0066<<>>::----==--****$$####1100",
"qq<<4444<<<<>>3377998844==##XXqq",
"qq<<4444<<<<>>3377998844==##XXqq",
"qq,,3322<<>>4400993366qq66$$XXqq",
"qq,,3322<<>>4400993366qq66$$XXqq",
"qq::<<<<>>>>9977==**--,,00<<oo00",
"qq::<<<<>>>>9977==**--,,00<<oo00",
"qq::,,,,::33qq::$$4400%%6666ooqq",
"qq::,,,,::33qq::$$4400%%6666ooqq",
"qq-->>>>::<<qq--$$==>>##5577ooqq",
"qq-->>>>::<<qq--$$==>>##5577ooqq",
"qq**::::::44qq::%%%%##%%qq33XXqq",
"qq**::::::44qq::%%%%##%%qq33XXqq",
"qq$$----33qq66%%;;;;;;qq99%%oo00",
"qq$$----33qq66%%;;;;;;qq99%%oo00",
"qq$$--220066==3300qq0088;;@@XXqq",
"qq$$--220066==3300qq0088;;@@XXqq",
"qq##<<qq66====qq88,,;;&&@@++OO00",
"qq##<<qq66====qq88,,;;&&@@++OO00",
"qq##qq55==3366qq77&&@@@@@@++..qq",
"qq##qq55==3366qq77&&@@@@@@++..qq",
"qqooqq,,33qqqq99;;%%@@@@@@++..00",
"qqooqq,,33qqqq99;;%%@@@@@@++..00",
"qqOO88qq0022==$$%%++++++OOOO..00",
"qqOO88qq0022==$$%%++++++OOOO..00",
"0011XXXXXXXXXXXXXX..........<<00",
"0011XXXXXXXXXXXXXX..........<<00",
"  000000qqqqqqqqqq00qqqq000000  ",
"  000000qqqqqqqqqq00qqqq000000  "
};
