/* XPM */
static char *mixer_16x16[] = {
/* columns rows colors chars-per-pixel */
"32 32 7 1 ",
"  c None",
". c black",
"X c #808000",
"o c yellow",
"O c #808080",
"+ c #C0C0C0",
"@ c gray100",
/* pixels */
"              ....              ",
"              ....              ",
"            XXOO..OO            ",
"            XXOO..OO            ",
"          XXoo..++++            ",
"          XXoo..++++            ",
"        XXooOOOO++@@OO      OO  ",
"        XXooOOOO++@@OO      OO  ",
"      XXoo@@..++@@@@OO    OO    ",
"      XXoo@@..++@@@@OO    OO    ",
"  XXXXoo@@oo..++@@@@OO  OO      ",
"  XXXXoo@@oo..++@@@@OO  OO      ",
"XX@@++@@oo@@....@@@@OO          ",
"XX@@++@@oo@@....@@@@OO          ",
"XXoo++oo@@oo..++..@@OO          ",
"XXoo++oo@@oo..++..@@OO          ",
"XXoo++@@oo@@..OO..@@OO  OOOOOOOO",
"XXoo++@@oo@@..OO..@@OO  OOOOOOOO",
"..XXOOoo@@oo....@@@@OO          ",
"..XXOOoo@@oo....@@@@OO          ",
"  ....XXoo@@..++@@@@OO          ",
"  ....XXoo@@..++@@@@OO          ",
"      ..XXoo..++@@@@OO  OO      ",
"      ..XXoo..++@@@@OO  OO      ",
"        ..XXOOOO@@@@OO    OO    ",
"        ..XXOOOO@@@@OO    OO    ",
"          ..XX..++++OO      OO  ",
"          ..XX..++++OO      OO  ",
"            ..XX..OO            ",
"            ..XX..OO            ",
"              ....              ",
"              ....              "
};
