/* XPM */
static char *mplayer_16x16[] = {
/* columns rows colors chars-per-pixel */
"32 32 30 1 ",
"  c None",
". c #131212",
"X c #4D6316",
"o c #434244",
"O c #757374",
"+ c #8D781F",
"@ c #8B7921",
"# c #F64119",
"$ c #F95027",
"% c #FE724E",
"& c #679613",
"* c #69AA00",
"= c #7BC800",
"- c #E7BD17",
"; c #94CA3E",
": c #E6C52F",
"> c #EBCC4C",
", c #1125A3",
"< c #294BB7",
"1 c #1960D2",
"2 c #5270D0",
"3 c #44A2F1",
"4 c #898A88",
"5 c #A5A5A5",
"6 c #F9B6A5",
"7 c #F4DF84",
"8 c #D1CFCD",
"9 c #DBE4DF",
"0 c #F0F0EA",
"q c #FCFBFB",
/* pixels */
"          ####******            ",
"          ####******            ",
"      ##$$$$$$==****&&44        ",
"      ##$$$$$$==****&&44        ",
"    ##$$%%%%%%;;====**XX44      ",
"    ##$$%%%%%%;;====**XX44      ",
"  ##$$%%66  889988;;**&&XXOO    ",
"  ##$$%%66  889988;;**&&XXOO    ",
"  ##%%6600oo8800000055&&XXXX    ",
"  ##%%6600oo8800000055&&XXXX    ",
"##$$%%8800ooOOOO88qq00&&&&XXOO  ",
"##$$%%8800ooOOOO88qq00&&&&XXOO  ",
"##$$%%9900oooo....ooqq;;&&ooOO  ",
"##$$%%9900oooo....ooqq;;&&ooOO  ",
"1111339900oo......8800>>::@@OO  ",
"1111339900oo......8800>>::@@OO  ",
"11113399qq....5599qqqq>>::++OO  ",
"11113399qq....5599qqqq>>::++OO  ",
"11111133004488qqqqqq77::--++OO  ",
"11111133004488qqqqqq77::--++OO  ",
"44<<11113399qqqq00>>>>::@@44    ",
"44<<11113399qqqq00>>>>::@@44    ",
"  44,,<<111122::>>>>::--++44    ",
"  44,,<<111122::>>>>::--++44    ",
"    44,,,,<<<<--::--@@@@44      ",
"    44,,,,<<<<--::--@@@@44      ",
"      44,,,,,,++++@@4444        ",
"      44,,,,,,++++@@4444        ",
"        444444444444            ",
"        444444444444            ",
"                                ",
"                                "
};
