/* XPM */
static char *notepad_16x16[] = {
/* columns rows colors chars-per-pixel */
"64 64 6 1 ",
"  c None",
". c black",
"X c gray50",
"o c #008383",
"O c #00FEFE",
"+ c gray80",
/* pixels */
"                    ....................................        ",
"                    ....................................        ",
"                    ....................................        ",
"                    ....................................        ",
"                ....XXXXooooooooXXXXooooooooXXXXoooo........    ",
"                ....XXXXooooooooXXXXooooooooXXXXoooo........    ",
"                ....XXXXooooooooXXXXooooooooXXXXoooo........    ",
"                ....XXXXooooooooXXXXooooooooXXXXoooo........    ",
"            ....OOOOOOOOOOOOOOOOOOOOOOOOOOOOOOOOOOOO....++++....",
"            ....OOOOOOOOOOOOOOOOOOOOOOOOOOOOOOOOOOOO....++++....",
"            ....OOOOOOOOOOOOOOOOOOOOOOOOOOOOOOOOOOOO....++++....",
"            ....OOOOOOOOOOOOOOOOOOOOOOOOOOOOOOOOOOOO....++++....",
"            ooooOOOOOOOOooooooooooooooooooooOOOOoooo....++++....",
"            ooooOOOOOOOOooooooooooooooooooooOOOOoooo....++++....",
"            ooooOOOOOOOOooooooooooooooooooooOOOOoooo....++++....",
"            ooooOOOOOOOOooooooooooooooooooooOOOOoooo....++++....",
"        ....OOOOOOOOooooooooooooooooooooOOOOOOOO....++++++++....",
"        ....OOOOOOOOooooooooooooooooooooOOOOOOOO....++++++++....",
"        ....OOOOOOOOooooooooooooooooooooOOOOOOOO....++++++++....",
"        ....OOOOOOOOooooooooooooooooooooOOOOOOOO....++++++++....",
"        ooooOOOOOOOOOOOOOOOOOOOOOOOOOOOOOOOOoooo....++++++++....",
"        ooooOOOOOOOOOOOOOOOOOOOOOOOOOOOOOOOOoooo....++++++++....",
"        ooooOOOOOOOOOOOOOOOOOOOOOOOOOOOOOOOOoooo....++++++++....",
"        ooooOOOOOOOOOOOOOOOOOOOOOOOOOOOOOOOOoooo....++++++++....",
"    ....OOOOOOOOOOOOOOOOOOOOOOOOOOOOOOOOOOOO....++++++++++++....",
"    ....OOOOOOOOOOOOOOOOOOOOOOOOOOOOOOOOOOOO....++++++++++++....",
"    ....OOOOOOOOOOOOOOOOOOOOOOOOOOOOOOOOOOOO....++++++++++++....",
"    ....OOOOOOOOOOOOOOOOOOOOOOOOOOOOOOOOOOOO....++++++++++++....",
"    ooooOOOOOOOOOOOOOOOOOOOOOOOOOOOOOOOOoooo....++++++++++++....",
"    ooooOOOOOOOOOOOOOOOOOOOOOOOOOOOOOOOOoooo....++++++++++++....",
"    ooooOOOOOOOOOOOOOOOOOOOOOOOOOOOOOOOOoooo....++++++++++++....",
"    ooooOOOOOOOOOOOOOOOOOOOOOOOOOOOOOOOOoooo....++++++++++++....",
"....OOOOOOOOOOOOOOOOOOOOOOOOOOOOOOOOOOOO....++++++++++++++++....",
"....OOOOOOOOOOOOOOOOOOOOOOOOOOOOOOOOOOOO....++++++++++++++++....",
"....OOOOOOOOOOOOOOOOOOOOOOOOOOOOOOOOOOOO....++++++++++++++++....",
"....OOOOOOOOOOOOOOOOOOOOOOOOOOOOOOOOOOOO....++++++++++++++++....",
"ooooOOOOOOOOOOOOOOOOOOOOOOOOOOOOOOOOoooo....++++++++++++++++....",
"ooooOOOOOOOOOOOOOOOOOOOOOOOOOOOOOOOOoooo....++++++++++++++++....",
"ooooOOOOOOOOOOOOOOOOOOOOOOOOOOOOOOOOoooo....++++++++++++++++....",
"ooooOOOOOOOOOOOOOOOOOOOOOOOOOOOOOOOOoooo....++++++++++++++++....",
"........................................++++++++++++++++++++....",
"........................................++++++++++++++++++++....",
"........................................++++++++++++++++++++....",
"........................................++++++++++++++++++++....",
"                ....++++++++++++++++++++++++++++++++++++++++....",
"                ....++++++++++++++++++++++++++++++++++++++++....",
"                ....++++++++++++++++++++++++++++++++++++++++....",
"                ....++++++++++++++++++++++++++++++++++++++++....",
"                ....++++++++++++++++++++++++++++++++++++++++....",
"                ....++++++++++++++++++++++++++++++++++++++++....",
"                ....++++++++++++++++++++++++++++++++++++++++....",
"                ....++++++++++++++++++++++++++++++++++++++++....",
"                ....++++++++++++++++++++++++++++++++++++++++....",
"                ....++++++++++++++++++++++++++++++++++++++++....",
"                ....++++++++++++++++++++++++++++++++++++++++....",
"                ....++++++++++++++++++++++++++++++++++++++++....",
"                ....++++++++++++++++++++++++++++++++++++++++....",
"                ....++++++++++++++++++++++++++++++++++++++++....",
"                ....++++++++++++++++++++++++++++++++++++++++....",
"                ....++++++++++++++++++++++++++++++++++++++++....",
"                    ........................................    ",
"                    ........................................    ",
"                    ........................................    ",
"                    ........................................    "
};
