/* XPM */
static char *programs_16x16[] = {
/* columns rows colors chars-per-pixel */
"32 32 31 1 ",
"  c None",
". c #AF7E18",
"X c #FF7A4C",
"o c #019901",
"O c #B4811D",
"+ c #BA8723",
"@ c #CC9901",
"# c #C28F2B",
"$ c #CA9733",
"% c #FFCC68",
"& c #FFD470",
"* c #FFE07C",
"= c #013499",
"- c #0B6AC2",
"; c #0167CC",
": c #0169CE",
"> c #017BDF",
", c #1474D2",
"< c #0B7FE2",
"1 c #CFCE8F",
"2 c #FFE883",
"3 c #FFF48E",
"4 c #FFFD97",
"5 c #9999CC",
"6 c #A9D4FF",
"7 c #B5DBFF",
"8 c #C6E3FF",
"9 c #D7EBFF",
"0 c #E6F3FF",
"q c #F1F8FF",
"w c gray100",
/* pixels */
"                                ",
"                                ",
"      $$$$$$$$                  ",
"      $$$$$$$$                  ",
"    $$wwwwwwww##                ",
"    $$wwwwwwww##                ",
"  $$ww44444444ww++++++OOOO..    ",
"  $$ww44444444ww++++++OOOO..    ",
"  $$333333333333wwwwwwwwww..    ",
"  $$333333333333wwwwwwwwww..    ",
"  $$222211,,,,,,,,,,,,,,,,,,,,  ",
"  $$222211,,,,,,,,,,,,,,,,,,,,  ",
"  ##****::::::::::::::::::::::--",
"  ##****::::::::::::::::::::::--",
"  $$&&&&::<<>>>>>>>>>>>>>>>>>>;;",
"  $$&&&&::<<>>>>>>>>>>>>>>>>>>;;",
"  ##%%%%;;wwwwwwwwwwwwwwqqqq00;;",
"  ##%%%%;;wwwwwwwwwwwwwwqqqq00;;",
"  ##%%%%;;ww5555ww<<<<qqoooo99;;",
"  ##%%%%;;ww5555ww<<<<qqoooo99;;",
"  ++%%%%;;ww5555ww<<<<qqoooo99;;",
"  ++%%%%;;ww5555ww<<<<qqoooo99;;",
"  ++%%%%;;wwwwwwqq000099888888;;",
"  ++%%%%;;wwwwwwqq000099888888;;",
"    OO..;;wwXXXXqq====88@@@@66;;",
"    OO..;;wwXXXXqq====88@@@@66;;",
"        ;;wwXXXXqq====88@@@@77;;",
"        ;;wwXXXXqq====88@@@@77;;",
"        ;;wwqq0099888877666666;;",
"        ;;wwqq0099888877666666;;",
"        ;;;;;;;;;;;;;;;;;;;;;;;;",
"        ;;;;;;;;;;;;;;;;;;;;;;;;"
};
