/* XPM */
static char *reboot_16x16[] = {
/* columns rows colors chars-per-pixel */
"32 32 31 1 ",
"  c None",
". c #147A14",
"X c #068706",
"o c #049A04",
"O c #148E14",
"+ c #1A891A",
"@ c #0AA90A",
"# c #1AA91A",
"$ c #228222",
"% c #279327",
"& c #2A9A2A",
"* c #349A34",
"= c #26A726",
"- c #24BA24",
"; c #28B028",
": c #39A039",
"> c #44A244",
", c #4AA64A",
"< c #49BA49",
"1 c #58AC58",
"2 c #5FB95F",
"3 c #65B265",
"4 c #69B769",
"5 c #75BB75",
"6 c #60C860",
"7 c #7CC37C",
"8 c #86C486",
"9 c #9ACE9A",
"0 c #B0D298",
"q c #A4D2A4",
"w c gray100",
/* pixels */
"  wwwwwwwwwwwwwwwwwwwwwwwwwwww  ",
"  wwwwwwwwwwwwwwwwwwwwwwwwwwww  ",
"ww008855331133111111>>>>****00ww",
"ww008855331133111111>>>>****00ww",
"ww889977554433qqqq111111,,**..ww",
"ww889977554433qqqq111111,,**..ww",
"ww777777553311wwww>>>>,,****$$ww",
"ww777777553311wwww>>>>,,****$$ww",
"ww335555ww88,,wwww**44ww>>&&++ww",
"ww335555ww88,,wwww**44ww>>&&++ww",
"ww11443388ww44553311ww33%%&&$$ww",
"ww11443388ww44553311ww33%%&&$$ww",
"ww113311115511****>>11##&&%%$$ww",
"ww113311115511****>>11##&&%%$$ww",
"ww,,99wwww55>>**::**<<wwww77++ww",
"ww,,99wwww55>>**::**<<wwww77++ww",
"ww>>99wwww55,,::==;;22wwww77++ww",
"ww>>99wwww55,,::==;;22wwww77++ww",
"ww>>,,11,,5511::::,,<<;;####OOww",
"ww>>,,11,,5511::::,,<<;;####OOww",
"ww**,,,,88ww44557722ww66##@@++ww",
"ww**,,,,88ww44557722ww66##@@++ww",
"ww%%**11ww55::wwww;;66ww--@@OOww",
"ww%%**11ww55::wwww;;66ww--@@OOww",
"ww%%****11>>**wwww;;;;--##@@XXww",
"ww%%****11>>**wwww;;;;--##@@XXww",
"ww++&&&&**&&&&8877==##@@@@ooXXww",
"ww++&&&&**&&&&8877==##@@@@ooXXww",
"ww00..$$$$$$$$++++OOXXXXXXXX00ww",
"ww00..$$$$$$$$++++OOXXXXXXXX00ww",
"  wwwwwwwwwwwwwwwwwwwwwwwwwwww  ",
"  wwwwwwwwwwwwwwwwwwwwwwwwwwww  "
};
