/* XPM */
static char *run2_16x16[] = {
/* columns rows colors chars-per-pixel */
"32 32 11 1 ",
"  c None",
". c black",
"X c #7B0000",
"o c #00007B",
"O c #7B7B7B",
"+ c red",
"@ c green",
"# c yellow",
"$ c cyan",
"% c gray74",
"& c white",
/* pixels */
"    OOOOOOOOOOOOOOOOOOOOOOOOOOOO",
"    OOOOOOOOOOOOOOOOOOOOOOOOOOOO",
"    OOoo++##oooooooooooooooooo..",
"    OOoo++##oooooooooooooooooo..",
"    OOoo$$@@oooooooooo%%..%%....",
"    OOoo$$@@oooooooooo%%..%%....",
"    OOOOOOOOOOOOOOOOOOOOOOOOOO..",
"    OOOOOOOOOOOOOOOOOOOOOOOOOO..",
"    OO%%&&&&&&&&&&&&&&&&&&&&OO..",
"    OO%%&&&&&&&&&&&&&&&&&&&&OO..",
"XX++++++++XX&&&&&&&&&&&&&&&&OO..",
"XX++++++++XX&&&&&&&&&&&&&&&&OO..",
"............&&&&&&&&&&&&&&&&OO..",
"............&&&&&&&&&&&&&&&&OO..",
"OO&&&&%%%%..&&&&&&&&&&&&&&&&OO..",
"OO&&&&%%%%..&&&&&&&&&&&&&&&&OO..",
"OO&&OO..OO..&&&&&&&&&&&&&&&&OO..",
"OO&&OO..OO..&&&&&&&&&&&&&&&&OO..",
"  OO%%OO..&&&&&&&&&&&&&&&&&&OO..",
"  OO%%OO..&&&&&&&&&&&&&&&&&&OO..",
"    OO..&&&&&&&&&&&&&&&&&&&&OO..",
"    OO..&&&&&&&&&&&&&&&&&&&&OO..",
"  OO&&OO..OOOOOOOOOOOOOOOOOOOO..",
"  OO&&OO..OOOOOOOOOOOOOOOOOOOO..",
"OO%%&&OO%%......................",
"OO%%&&OO%%......................",
"OO&&OO..OO..                    ",
"OO&&OO..OO..                    ",
"XX++++++++XX                    ",
"XX++++++++XX                    ",
"............                    ",
"............                    "
};
