/* XPM */
static char *run_16x16[] = {
/* columns rows colors chars-per-pixel */
"32 32 30 1 ",
"  c None",
". c #4D5665",
"X c #56606E",
"o c #5D6673",
"O c #656D7A",
"+ c #1E4FB2",
"@ c #346AAD",
"# c #6D7C96",
"$ c #5A7DB1",
"% c #6C8AB4",
"& c #288DDF",
"* c #2F90DF",
"= c #4A94D4",
"- c #4CA1E7",
"; c #898981",
": c #969791",
"> c #889DB9",
", c #9CA1A9",
"< c #ACB0B1",
"1 c #C3BDB4",
"2 c #BABDC2",
"3 c #BAC5CD",
"4 c #CCCCC9",
"5 c #D0D1CF",
"6 c #E1DDCB",
"7 c #E6E3D6",
"8 c #EFEAD8",
"9 c #F1EEE7",
"0 c #F7F6F3",
"q c gray100",
/* pixels */
"                                ",
"                                ",
"                                ",
"                                ",
"                                ",
"                                ",
"        >>++++++++++++++++++@@##",
"        >>++++++++++++++++++@@##",
"33<<,,11$$**&&&&&&&&&&----==@@@@",
"33<<,,11$$**&&&&&&&&&&----==@@@@",
"      22$$888888888888888888$$..",
"      22$$888888888888888888$$..",
"<<::<<$$8888;;;;;;;;;;::8844$$..",
"<<::<<$$8888;;;;;;;;;;::8844$$..",
"      $$88::66qqqqqqqq7700%%++OO",
"      $$88::66qqqqqqqq7700%%++OO",
"<<,,<<>>66::qqqqqqqq008888$$++  ",
"<<,,<<>>66::qqqqqqqq008888$$++  ",
"    %%775544444444444499>>++XX  ",
"    %%775544444444444499>>++XX  ",
"<<11$$888888888888888888$$++    ",
"<<11$$888888888888888888$$++    ",
"    ++++++++++++++++++++++oo    ",
"    ++++++++++++++++++++++oo    ",
"      ##OOoooooooooooooooo      ",
"      ##OOoooooooooooooooo      ",
"                                ",
"                                ",
"                                ",
"                                ",
"                                ",
"                                "
};
