/* XPM */
static char *settings_16x16[] = {
/* columns rows colors chars-per-pixel */
"32 32 119 2 ",
"   c None",
".  c #30343D",
"X  c #41403E",
"o  c #28334D",
"O  c #2B374D",
"+  c #323640",
"@  c #253754",
"#  c #233952",
"$  c #253B54",
"%  c #21365F",
"&  c #163763",
"*  c #293E6B",
"=  c #2C4159",
"-  c #18477F",
";  c #434240",
":  c #424446",
">  c #6D5A57",
",  c #7B5351",
"<  c #445666",
"1  c #525960",
"2  c #A54A3D",
"3  c #D15A31",
"4  c #D1AC3E",
"5  c #CAAE4F",
"6  c #CDB04E",
"7  c #CABA78",
"8  c #D1BF75",
"9  c #DCC474",
"0  c #2A5086",
"q  c #325D89",
"w  c #2B5299",
"e  c #29559E",
"r  c #094BAA",
"t  c #0F4FAD",
"y  c #0152BF",
"u  c #1556B4",
"i  c #1C5DB8",
"p  c #2062BD",
"a  c #0154C4",
"s  c #015CCA",
"d  c #115EC0",
"f  c #1165CA",
"g  c #0768D1",
"h  c #056CD6",
"j  c #1174D7",
"k  c #2668C3",
"l  c #2D6EC7",
"z  c #3C72C3",
"x  c #3978CE",
"c  c #437DCF",
"v  c #497CC8",
"b  c #487FCF",
"n  c #507CC3",
"m  c #769191",
"M  c #6893BA",
"N  c #3183D2",
"B  c #4484C5",
"V  c #4F87C6",
"C  c #4E81CA",
"Z  c #468DCB",
"A  c #6B97C5",
"S  c #6994D1",
"D  c #639AD4",
"F  c #78A0DE",
"G  c #5EADFB",
"H  c #77AAE2",
"J  c #7AB6F5",
"K  c #5CC2FF",
"L  c #BB8B81",
"P  c #829BA8",
"I  c #989BA9",
"U  c #A7BDBA",
"Y  c #D4CA95",
"T  c #D4D0A7",
"R  c #DCD3A8",
"E  c #D6D7BC",
"W  c #97B3DC",
"Q  c #8AB1E6",
"!  c #9CBBE5",
"~  c #93BAE9",
"^  c #91B8EA",
"/  c #89B7F1",
"(  c #93BDF4",
")  c #96C6F3",
"_  c #92C6F8",
"`  c #86D1FF",
"'  c #A6C1E8",
"]  c #B6CDED",
"[  c #BFDCF2",
"{  c #B1DBFA",
"}  c #B2DBFF",
"|  c #BDE1FF",
" . c #CCD7CC",
".. c #D9E2D7",
"X. c #DFE7D8",
"o. c #E8E5C3",
"O. c #E0E2CC",
"+. c #ECEAD4",
"@. c #C5D9F6",
"#. c #C4E3FF",
"$. c #C6E7FF",
"%. c #CAEBFF",
"&. c #DDEEF6",
"*. c #D7E5F8",
"=. c #D4ECFF",
"-. c #DBF3FF",
";. c #E3EAF6",
":. c #EEF6F7",
">. c #E3F2FC",
",. c #E4F6FF",
"<. c #EBF6FF",
"1. c #ECF9FF",
"2. c #F0F2F9",
"3. c #F2F8FF",
"4. c #F7FDFF",
"5. c #FAF8FA",
"6. c #FBFBFC",
"7. c #FBFEFF",
"8. c white",
/* pixels */
"                                                                ",
"                                                                ",
"                    Z Z N N j j h h < <                         ",
"                    Z Z N N j j h h < <                         ",
"        g g s s a a y y d d v v x x = =                         ",
"        g g s s a a y y d d v v x x = =                         ",
"    f f z z S S W W ] ] ;.;.7.7.^ ^ $ $                         ",
"    f f z z S S W W ] ] ;.;.7.7.^ ^ $ $                         ",
"    b b 5.5.8.8.8.8.8.8.+.+.o.o./ / # #                         ",
"    b b 5.5.8.8.8.8.8.8.+.+.o.o./ / # #                         ",
"    c c 6.6.8.8.3.3.1.1.R R O.O.( ( @ @             L L         ",
"    c c 6.6.8.8.3.3.1.1.R R O.O.( ( @ @             L L         ",
"    x x 2.2.4.4.<.<.>.>.Y Y &.&.^ ^ & &     A A I I 3 3 2 2     ",
"    x x 2.2.4.4.<.<.>.>.Y Y &.&.^ ^ & &     A A I I 3 3 2 2     ",
"    l l ;.;.:.:.,.,.....8 8 %.%.H H V V ) ) _ _ M M , , > >     ",
"    l l ;.;.:.:.,.,.....8 8 %.%.H H V V ) ) _ _ M M , , > >     ",
"    k k *.*.9 9 E E T T 7 7 P P J J ) ) B B q q 1 1             ",
"    k k *.*.9 9 E E T T 7 7 P P J J ) ) B B q q 1 1             ",
"    p p @.@.X.X.6 6 4 4 U U m m D D - - : :                     ",
"    p p @.@.X.X.6 6 4 4 U U m m D D - - : :                     ",
"    i i ] ] -.-. . .5 5 { { K K J J $ $                         ",
"    i i ] ] -.-. . .5 5 { { K K J J $ $                         ",
"    u u ' ' =.=.#.#.[ [ | | ` ` G G - -                         ",
"    u u ' ' =.=.#.#.[ [ | | ` ` G G - -                         ",
"    t t ! ! -.-.$.$.} } / / C C e e O O                         ",
"    t t ! ! -.-.$.$.} } / / C C e e O O                         ",
"    r r F F Q Q n n w w % % . . X X                             ",
"    r r F F Q Q n n w w % % . . X X                             ",
"    0 0 * * o o + + ; ;                                         ",
"    0 0 * * o o + + ; ;                                         ",
"                                                                ",
"                                                                "
};
