/* XPM */
static char *settings2_16x16[] = {
/* columns rows colors chars-per-pixel */
"32 32 9 1 ",
"  c None",
". c black",
"X c #3D3D3C",
"o c #878600",
"O c #828182",
"+ c #EDE381",
"@ c #C6C4C6",
"# c #F0F0D5",
"$ c white",
/* pixels */
"OOOOOOOOOOOOOOOOOOOOOO          ",
"OOOOOOOOOOOOOOOOOOOOOO          ",
"OO$$################XX          ",
"OO$$################XX          ",
"OO$$@@......OO######XX          ",
"OO$$@@......OO######XX          ",
"OO$$@@..$$$$OO######XX          ",
"OO$$@@..$$$$OO######XX          ",
"OO$$@@..$$$$OO##ooooXX          ",
"OO$$@@..$$$$OO##ooooXX          ",
"OO$$@@..OOOOOOoo$$$$oo          ",
"OO$$@@..OOOOOOoo$$$$oo          ",
"OO$$@@@@XXXX@@oo++oooo  oooo    ",
"OO$$@@@@XXXX@@oo++oooo  oooo    ",
"OO$$####oo##oooo++oooooo$$oo    ",
"OO$$####oo##oooo++oooooo$$oo    ",
"OO$$####oooooooo++oooooooooo    ",
"OO$$####oooooooo++oooooooooo    ",
"OO$$##XX++++++oo++oooo++++$$oo  ",
"OO$$##XX++++++oo++oooo++++$$oo  ",
"OO$$##ooXXoo++++oooo++++oooooo  ",
"OO$$##ooXXoo++++oooo++++oooooo  ",
"OO$$##oooo$$oo++$$++++oo$$..oo  ",
"OO$$##oooo$$oo++$$++++oo$$..oo  ",
"OO$$##oo$$oooo..$$++..oooo$$..  ",
"OO$$##oo$$oooo..$$++..oooo$$..  ",
"OOOOOOooooXXoooooo....oooooo    ",
"OOOOOOooooXXoooooo....oooooo    ",
"        ooXX    oo..    oooo    ",
"        ooXX    oo..    oooo    ",
"                ooXX            ",
"                ooXX            "
};
