/* XPM */
static char *shutdown_16x16[] = {
/* columns rows colors chars-per-pixel */
"32 32 31 1 ",
"  c None",
". c #BA2B04",
"X c #B93918",
"o c #CA3308",
"O c #E13F09",
"+ c #BF401E",
"@ c #BE4223",
"# c #E3440D",
"$ c #E24A18",
"% c #DA4924",
"& c #DC512B",
"* c #DB5330",
"= c #E5572A",
"- c #E4582E",
"; c #E25834",
": c #E56748",
"> c #E66D50",
", c #E77459",
"< c #E87E64",
"1 c #EA8369",
"2 c #EB8A72",
"3 c #EE9176",
"4 c #D99585",
"5 c #ED9883",
"6 c #F1A894",
"7 c #F3BBAD",
"8 c #F6C6B9",
"9 c #FBE3DB",
"0 c #FCECE8",
"q c #F9F9F8",
"w c gray100",
/* pixels */
"  qqwwwwwwwwwwwwwwwwwwwwwwwwqq  ",
"  qqwwwwwwwwwwwwwwwwwwwwwwwwqq  ",
"qq772211,,>>>>::::::::;;**%%44qq",
"qq772211,,>>>>::::::::;;**%%44qq",
"ww336666552211<<<<,,,,>>::**XXww",
"ww336666552211<<<<,,,,>>::**XXww",
"ww225555<<66qqqqww0055::;;**XXww",
"ww225555<<66qqqqww0055::;;**XXww",
"ww,,332277qq77221177ww66****@@ww",
"ww,,332277qq77221177ww66****@@ww",
"ww,,2266ww55::::;;;;11ww22**@@ww",
"ww,,2266ww55::::;;;;11ww22**@@ww",
"ww>><<0077>>::wwww**$$7799&&@@ww",
"ww>><<0077>>::wwww**$$7799&&@@ww",
"ww::,,ww55>>::wwww;;==11ww&&++ww",
"ww::,,ww55>>::wwww;;==11ww&&++ww",
"ww::>>ww33>>::wwww====11qq##%%qq",
"ww::>>ww33>>::wwww====11qq##%%qq",
"ww**>>0088>>::wwww====8899$$XXww",
"ww**>>0088>>::wwww====8899$$XXww",
"ww&&::55ww55::::;;--33ww22##..ww",
"ww&&::55ww55::::;;--33ww22##..ww",
"ww%%**::77ww88223388ww66####..ww",
"ww%%**::77ww88223388ww66####..ww",
"wwOO;;;;::3399wwww9933$$##OOooqq",
"wwOO;;;;::3399wwww9933$$##OOooqq",
"wwoo%%**********&&$$$$##OOoo..ww",
"wwoo%%**********&&$$$$##OOoo..ww",
"qq44..XXXXXXXXXXXXoo........22qq",
"qq44..XXXXXXXXXXXXoo........22qq",
"  qqwwwwwwwwwwwwwwwwwwwwwwwwqq  ",
"  qqwwwwwwwwwwwwwwwwwwwwwwwwqq  "
};
