/* XPM */
static char *wireless_16x16[] = {
/* columns rows colors chars-per-pixel */
"32 32 28 1 ",
"  c None",
". c #086A18",
"X c #147211",
"o c #137716",
"O c #147C40",
"+ c #645D78",
"@ c #1E8214",
"# c #228419",
"$ c #2C8553",
"% c #98FE67",
"& c #99FE68",
"* c #595782",
"= c #615F84",
"- c #6F708E",
"; c #797884",
": c #7A7A8E",
"> c #7F879A",
", c #808080",
"< c #8188A3",
"1 c #878EA6",
"2 c #8890A7",
"3 c #A597BC",
"4 c #9185D7",
"5 c #A095DE",
"6 c #A398DF",
"7 c #AFA4E4",
"8 c #D0C6D1",
"9 c #EEE6EB",
/* pixels */
"                                ",
"                                ",
"  &&##                    @@&&  ",
"  &&##                    @@&&  ",
"%%oo    %%XX        XX%%    oo%%",
"%%oo    %%XX        XX%%    oo%%",
"%%..  %%@@    ==,,    @@%%  ..%%",
"%%..  %%@@    ==,,    @@%%  ..%%",
"%%..  %%@@  --9933;;  @@%%  ..%%",
"%%..  %%@@  --9933;;  @@%%  ..%%",
"%%..  %%@@  ::8877**  @@%%  ..%%",
"%%..  %%@@  ::8877**  @@%%  ..%%",
"%%..  %%@@    ,,++    @@%%  ..%%",
"%%..  %%@@    ,,++    @@%%  ..%%",
"%%oo    %%OO  <<44  $$%%    oo%%",
"%%oo    %%OO  <<44  $$%%    oo%%",
"  %%@@        1166        @@%%  ",
"  %%@@        1166        @@%%  ",
"              1155              ",
"              1155              ",
"              1166              ",
"              1166              ",
"              2266              ",
"              2266              ",
"              1166              ",
"              1166              ",
"              >>;;              ",
"              >>;;              ",
"              ,,,,              ",
"              ,,,,              ",
"                                ",
"                                "
};
