/* XPM */
static char *word_16x16[] = {
/* columns rows colors chars-per-pixel */
"32 32 5 1 ",
"  c blue",
". c black",
"X c white",
"o c #808080",
"O c #C0C0C0",
/* pixels */
"..  ..  ..  ..  ..  ..  ..  ..  ",
"..  ..  ..  ..  ..  ..  ..  ..  ",
"  ..  ..  ..  ..  ..  ..  ..  ..",
"  ..  ..  ..  ..  ..  ..  ..  ..",
"..  XXXXXXXXXXXXXXXXXXXXXXXX..  ",
"..  XXXXXXXXXXXXXXXXXXXXXXXX..  ",
"  ..XXXXXXXXXXXXXXXXXXXXXXXX  ..",
"  ..XXXXXXXXXXXXXXXXXXXXXXXX  ..",
"..  ..  ..  ..  ..  ..  ..  ..  ",
"..  ..  ..  ..  ..  ..  ..  ..  ",
"  ..  ..  XX  ..  XX  ..  ..  ..",
"  ..  ..  XX  ..  XX  ..  ..  ..",
"..  oo  ..XX..  ..XX..  ..XX..  ",
"..  oo  ..XX..  ..XX..  ..XX..  ",
"  ..XX..  XX  ..  XX  ..ooXX  ..",
"  ..XX..  XX  ..  XX  ..ooXX  ..",
"..  XX  ..  ..  ..  ..  OOXX..  ",
"..  XX  ..  ..  ..  ..  OOXX..  ",
"  ..XX..  ..  ..  ..  ..XXXX  ..",
"  ..XX..  ..  ..  ..  ..XXXX  ..",
"..  XX  ..  XX  ..  ..ooXXXX..  ",
"..  XX  ..  XX  ..  ..ooXXXX..  ",
"  ..XX..  ..XX..  ..  OOXXXX  ..",
"  ..XX..  ..XX..  ..  OOXXXX  ..",
"..  XX  ..  XX  ..  ..XXXXXX..  ",
"..  XX  ..  XX  ..  ..XXXXXX..  ",
"  ..XXXXXXXXXXXXXXXXXXXXXXXX  ..",
"  ..XXXXXXXXXXXXXXXXXXXXXXXX  ..",
"..  ..  ..  ..  ..  ..  ..  ..  ",
"..  ..  ..  ..  ..  ..  ..  ..  ",
"  ..  ..  ..  ..  ..  ..  ..  ..",
"  ..  ..  ..  ..  ..  ..  ..  .."
};
