/* XPM */
static char *wordpad_16x16[] = {
/* columns rows colors chars-per-pixel */
"32 32 8 1 ",
"  c None",
". c black",
"X c #BCBC00",
"o c #FEFE00",
"O c #0000D6",
"+ c #848484",
"@ c gray80",
"# c white",
/* pixels */
"      ..  ..  ..  ..  ..        ",
"      ..  ..  ..  ..  ..        ",
"    ..##++##++##++##++##..      ",
"    ..##++##++##++##++##..      ",
"  ++##..##..##..##..##..##..    ",
"  ++##..##..##..##..##..##..    ",
"  ++####################@@..  OO",
"  ++####################@@..  OO",
"  ++####################@@..OOOO",
"  ++####################@@..OOOO",
"  ++@@@@@@@@@@@@@@@@@@@@@@..OO##",
"  ++@@@@@@@@@@@@@@@@@@@@@@..OO##",
"  ++####################@@....OO",
"  ++####################@@....OO",
"  ++####################XX......",
"  ++####################XX......",
"  ++@@@@@@@@@@@@@@@@@@XXooXX....",
"  ++@@@@@@@@@@@@@@@@@@XXooXX....",
"  ++################XXoo##XX++..",
"  ++################XXoo##XX++..",
"  ++##############XXoo##XX....  ",
"  ++##############XXoo##XX....  ",
"  ++@@@@@@@@@@@@XX..........    ",
"  ++@@@@@@@@@@@@XX..........    ",
"  ++##########....######@@..    ",
"  ++##########....######@@..    ",
"  ++####################@@..    ",
"  ++####################@@..    ",
"  ++@@@@@@@@@@@@@@@@@@@@@@..    ",
"  ++@@@@@@@@@@@@@@@@@@@@@@..    ",
"    ......................      ",
"    ......................      "
};
