/* XPM */
static char *word_32x32[] = {
/* columns rows colors chars-per-pixel */
"64 64 5 1 ",
"  c None",
". c gray50",
"X c #0000C0",
"o c gray75",
"O c gray100",
/* pixels */
"                                                                ",
"                                                                ",
"                                                                ",
"                                                                ",
"    XXXXXXXXXXXXXXXXXXXXXXXXXXXXXXXXXXXXXXXXXXXXXXXXXXXXXXXX    ",
"    XXXXXXXXXXXXXXXXXXXXXXXXXXXXXXXXXXXXXXXXXXXXXXXXXXXXXXXX    ",
"    XXXXXXXXXXXXXXXXXXXXXXXXXXXXXXXXXXXXXXXXXXXXXXXXXXXXXXXX    ",
"    XXXXXXXXXXXXXXXXXXXXXXXXXXXXXXXXXXXXXXXXXXXXXXXXXXXXXXXX    ",
"    XXXXXXXXXXXXXXXXXXXXXXXXXXXXXXXXXXXXXXXXXXXXXXXXXXXXXXXX    ",
"    XXXXXXXXXXXXXXXXXXXXXXXXXXXXXXXXXXXXXXXXXXXXXXXXXXXXXXXX    ",
"    XXXXXXOOOOOOOOOOOOOOOOOOOOOOOOOOOOOOOOOOOOOOOOOOOOXXXXXX    ",
"    XXXXXXOOOOOOOOOOOOOOOOOOOOOOOOOOOOOOOOOOOOOOOOOOOOXXXXXX    ",
"    XXXXXXOOOOOOOOOOOOOOOOOOOOOOOOOOOOOOOOOOOOOOOOOOOOXXXXXX    ",
"    XXXXXXOOOOOOOOOOOOOOOOOOOOOOOOOOOOOOOOOOOOOOOOOOOOXXXXXX    ",
"    XXXXXXOOOOOOOOOOOOOOOOOOOOOOOOOOOOOOOOOOOOOOOOOOOOXXXXXX    ",
"    XXXXXXOOOOOOOOOOOOOOOOOOOOOOOOOOOOOOOOOOOOOOOOOOOOXXXXXX    ",
"    XXXXXXOOOOOOOOOOOOOOOOOOOOOOOOOOOOOOOOOOOOOOOOOOOOXXXXXX    ",
"    XXXXXXOOOOOOOOOOOOOOOOOOOOOOOOOOOOOOOOOOOOOOOOOOOOXXXXXX    ",
"    XXXXXXOOXXXXXXXXXXXXXXXXOOXXXXXXXXXXOOXXXXXXXXXXXXXXXXXX    ",
"    XXXXXXOOXXXXXXXXXXXXXXXXOOXXXXXXXXXXOOXXXXXXXXXXXXXXXXXX    ",
"    XXXXXXOOXXXXXXXXXXXXXXXXooXXXXXXXXXXOOXXXXXXXXXXXXXXXXXX    ",
"    XXXXXXOOXXXXXXXXXXXXXXXXooXXXXXXXXXXOOXXXXXXXXXXXXXXXXXX    ",
"    XXXXXXOOOOOOXXXXXXXXOOOO..XXXXXXXXXXOOOOXXXXXXooOOXXXXXX    ",
"    XXXXXXOOOOOOXXXXXXXXOOOO..XXXXXXXXXXOOOOXXXXXXooOOXXXXXX    ",
"    XXXXXXOOOOOOXXXXXXXXOOOOXXXXXXXXXXXXOOOOXXXXXXOOOOXXXXXX    ",
"    XXXXXXOOOOOOXXXXXXXXOOOOXXXXXXXXXXXXOOOOXXXXXXOOOOXXXXXX    ",
"    XXXXXXOOOOOOXXXXXXXXOOooXXXXXXXXXXXXOOooXXXXooOOOOXXXXXX    ",
"    XXXXXXOOOOOOXXXXXXXXOOooXXXXXXXXXXXXOOooXXXXooOOOOXXXXXX    ",
"    XXXXXXOOOOOOXXXXXXXXOO..XXXXXXXXXXXXOOXXXXXXOOOOOOXXXXXX    ",
"    XXXXXXOOOOOOXXXXXXXXOO..XXXXXXXXXXXXOOXXXXXXOOOOOOXXXXXX    ",
"    XXXXXXOOOOOOXXXXXXXXOOXXXXXXXXXXXXXXXXXXXXooOOOOOOXXXXXX    ",
"    XXXXXXOOOOOOXXXXXXXXOOXXXXXXXXXXXXXXXXXXXXooOOOOOOXXXXXX    ",
"    XXXXXXOOOOOOXXXXXXXXXXXXXXXXXXXXXXXXXXXXXXOOOOOOOOXXXXXX    ",
"    XXXXXXOOOOOOXXXXXXXXXXXXXXXXXXXXXXXXXXXXXXOOOOOOOOXXXXXX    ",
"    XXXXXXOOOOOOXXXXXXXXXXXXXXXXXXXXXXXXXXXXooOOOOOOOOXXXXXX    ",
"    XXXXXXOOOOOOXXXXXXXXXXXXXXXXXXXXXXXXXXXXooOOOOOOOOXXXXXX    ",
"    XXXXXXOOOOOOXXXXXXXXXXXXXXXXXXXXXXXXXXXXOOOOOOOOOOXXXXXX    ",
"    XXXXXXOOOOOOXXXXXXXXXXXXXXXXXXXXXXXXXXXXOOOOOOOOOOXXXXXX    ",
"    XXXXXXOOOOOOXXXXXXXXXXXXOOXXXXXXXXXXXXooOOOOOOOOOOXXXXXX    ",
"    XXXXXXOOOOOOXXXXXXXXXXXXOOXXXXXXXXXXXXooOOOOOOOOOOXXXXXX    ",
"    XXXXXXOOOOOOXXXXXXXXXX..OOXXXXXXXXXXXXOOOOOOOOOOOOXXXXXX    ",
"    XXXXXXOOOOOOXXXXXXXXXX..OOXXXXXXXXXXXXOOOOOOOOOOOOXXXXXX    ",
"    XXXXXXOOOOOOXXXXXXXXXXooOOXXXXXXXXXXooOOOOOOOOOOOOXXXXXX    ",
"    XXXXXXOOOOOOXXXXXXXXXXooOOXXXXXXXXXXooOOOOOOOOOOOOXXXXXX    ",
"    XXXXXXOOOOOOXXXXXXXXXXOOOOXXXXXXXXXXOOOOOOOOOOOOOOXXXXXX    ",
"    XXXXXXOOOOOOXXXXXXXXXXOOOOXXXXXXXXXXOOOOOOOOOOOOOOXXXXXX    ",
"    XXXXXXOOOOOOXXXXXXXXooOOOOXXXXXXXXooOOOOOOOOOOOOOOXXXXXX    ",
"    XXXXXXOOOOOOXXXXXXXXooOOOOXXXXXXXXooOOOOOOOOOOOOOOXXXXXX    ",
"    XXXXXXOOOOOOOOOOOOOOOOOOOOOOOOOOOOOOOOOOOOOOOOOOOOXXXXXX    ",
"    XXXXXXOOOOOOOOOOOOOOOOOOOOOOOOOOOOOOOOOOOOOOOOOOOOXXXXXX    ",
"    XXXXXXOOOOOOOOOOOOOOOOOOOOOOOOOOOOOOOOOOOOOOOOOOOOXXXXXX    ",
"    XXXXXXOOOOOOOOOOOOOOOOOOOOOOOOOOOOOOOOOOOOOOOOOOOOXXXXXX    ",
"    XXXXXXOOOOOOOOOOOOOOOOOOOOOOOOOOOOOOOOOOOOOOOOOOOOXXXXXX    ",
"    XXXXXXOOOOOOOOOOOOOOOOOOOOOOOOOOOOOOOOOOOOOOOOOOOOXXXXXX    ",
"    XXXXXXXXXXXXXXXXXXXXXXXXXXXXXXXXXXXXXXXXXXXXXXXXXXXXXXXX    ",
"    XXXXXXXXXXXXXXXXXXXXXXXXXXXXXXXXXXXXXXXXXXXXXXXXXXXXXXXX    ",
"    XXXXXXXXXXXXXXXXXXXXXXXXXXXXXXXXXXXXXXXXXXXXXXXXXXXXXXXX    ",
"    XXXXXXXXXXXXXXXXXXXXXXXXXXXXXXXXXXXXXXXXXXXXXXXXXXXXXXXX    ",
"    XXXXXXXXXXXXXXXXXXXXXXXXXXXXXXXXXXXXXXXXXXXXXXXXXXXXXXXX    ",
"    XXXXXXXXXXXXXXXXXXXXXXXXXXXXXXXXXXXXXXXXXXXXXXXXXXXXXXXX    ",
"                                                                ",
"                                                                ",
"                                                                ",
"                                                                "
};
