/* XPM */
static char *xmms_16x16[] = {
/* columns rows colors chars-per-pixel */
"32 32 59 1 ",
"  c None",
". c #21211C",
"X c #31312C",
"o c #713F1F",
"O c #6D4010",
"+ c #7D4E15",
"@ c #715511",
"# c #43423F",
"$ c #6D5029",
"% c #715932",
"& c #62574A",
"* c #605F57",
"= c #756341",
"- c #716751",
"; c gray38",
": c #79756C",
"> c #885605",
", c #814C10",
"< c #9F6016",
"1 c #CF7C14",
"2 c #AF810D",
"3 c #CF9304",
"4 c #DF8314",
"5 c #EF8A13",
"6 c #FF921A",
"7 c #FF9B1E",
"8 c #EFAA06",
"9 c #FFBD1D",
"0 c #FF8826",
"q c #FF9722",
"w c #FF9A24",
"e c #FFA327",
"r c #FFA92B",
"t c #FFC329",
"y c #85837E",
"u c #CF9659",
"i c #FF9B45",
"p c #CFA653",
"a c #EFAF48",
"s c #FFAA46",
"d c #CFA960",
"f c #CFB97B",
"g c #FFC745",
"h c #FFCB5B",
"j c #FFCE61",
"k c #FFCB71",
"l c #FFD675",
"z c #FFE07E",
"x c #888683",
"c c #9F9F9F",
"v c #AFAFAF",
"b c gray75",
"n c #CFC787",
"m c #FFE086",
"M c #FFEA98",
"N c gray81",
"B c #DFDFDF",
"V c #EFEFEF",
"C c gray100",
/* pixels */
"              ;;;;              ",
"              ;;;;              ",
"            ;;####;;    yy&&    ",
"            ;;####;;    yy&&    ",
"          ;;##CCCC##;;$$pp,,    ",
"          ;;##CCCC##;;$$pp,,    ",
"        ;;##CCCCBB--22llww$$    ",
"        ;;##CCCCBB--22llww$$    ",
"      ;;##CCVVxx>>ttkk66OO      ",
"      ;;##CCVVxx>>ttkk66OO      ",
"    ;;##CCcc@@8899zz77$$##;;    ",
"    ;;##CCcc@@8899zz77$$##;;    ",
"  ;;##NN%%33ttggggggaaooNN##;;  ",
"  ;;##NN%%33ttggggggaaooNN##;;  ",
";;##CCxxhhssrrMMjjss0011bbCC##;;",
";;##CCxxhhssrrMMjjss0011bbCC##;;",
";;##CCxxeeqqmmhh00ww77>>NNCC##;;",
";;##CCxxeeqqmmhh00ww77>>NNCC##;;",
"  ;;##NN..nnii00ww55$$vvCC##;;  ",
"  ;;##NN..nnii00ww55$$vvCC##;;  ",
"    ;;XXff00wwqq<<::VVCC##;;    ",
"    ;;XXff00wwqq<<::VVCC##;;    ",
"    **uu00rr44%%bbCCCC##;;      ",
"    **uu00rr44%%bbCCCC##;;      ",
"  ::ddwwww++xxCCCCCC##;;        ",
"  ::ddwwww++xxCCCCCC##;;        ",
"  ==rr11$$;;##CCCC##;;          ",
"  ==rr11$$;;##CCCC##;;          ",
"  ==++::    ;;####;;            ",
"  ==++::    ;;####;;            ",
"              ;;;;              ",
"              ;;;;              "
};
