/* XPM */
static char *xmms_32x32[] = {
/* columns rows colors chars-per-pixel */
"64 64 62 1 ",
"  c None",
". c black",
"X c #0D0D0C",
"o c #100900",
"O c #100E0D",
"+ c #131313",
"@ c #201403",
"# c #301802",
"$ c #2A2929",
"% c #303022",
"& c #402805",
"* c #482C09",
"= c #683B09",
"- c #705212",
"; c #494846",
": c #505050",
"> c #626160",
", c #727270",
"< c #864F08",
"1 c #946900",
"2 c #B76F1D",
"3 c #BF7214",
"4 c #CF6F07",
"5 c #D47912",
"6 c #FF6D13",
"7 c #FF7C25",
"8 c #BF8714",
"9 c #DF9E02",
"0 c #F78713",
"q c #FF9212",
"w c #FF9B1B",
"e c #FFB608",
"r c #F9B511",
"t c #FF882E",
"y c #FF9927",
"u c #FFA325",
"i c #FFAA2B",
"p c #FFBD26",
"a c #FFAB33",
"s c #FFB335",
"d c #FFC22B",
"f c #BF9E46",
"g c #84827D",
"h c #F79A47",
"j c #FFB358",
"k c #EFB56A",
"l c #FFBB64",
"z c #FFCC4E",
"x c #FFCB68",
"c c #FBD06E",
"v c #FFD374",
"b c gray52",
"n c #918F89",
"m c #9F9C97",
"M c #ACA9A2",
"N c #AFAFAF",
"B c gray75",
"V c #F5E89A",
"C c #E6DFAA",
"Z c gray86",
"A c #EFEFEF",
"S c gray100",
/* pixels */
"                              MMMM                              ",
"                              MMMM                              ",
"                            MM....MM                            ",
"                            MM....MM                            ",
"                          MM........MM            gg,,MM        ",
"                          MM........MM            gg,,MM        ",
"                        MM....SSSS....MM        ,,XX@@OO        ",
"                        MM....SSSS....MM        ,,XX@@OO        ",
"                      MM....SSSSSSSS....MM  mm++##ff22..        ",
"                      MM....SSSSSSSS....MM  mm++##ff22..        ",
"                    MM....SSSSSSSSSSSS....++oo11zzjj55..        ",
"                    MM....SSSSSSSSSSSS....++oo11zzjj55..        ",
"                  MM....SSSSSSSSSSSSAA,,..<<rrccyyww33XX        ",
"                  MM....SSSSSSSSSSSSAA,,..<<rrccyyww33XX        ",
"                MM....SSSSSSSSSSSSnnOO&&99ddvvyyww44oogg        ",
"                MM....SSSSSSSSSSSSnnOO&&99ddvvyyww44oogg        ",
"              MM....SSSSSSSSSSBB$$@@88eezzllttww44oogg          ",
"              MM....SSSSSSSSSSBB$$@@88eezzllttww44oogg          ",
"            MM....SSSSSSSSZZ;;oo11eeeeccxxyyww44ooMM            ",
"            MM....SSSSSSSSZZ;;oo11eeeeccxxyyww44ooMM            ",
"          MM....SSSSSSAA,,..--eeeerrzzlliiww44oo....MM          ",
"          MM....SSSSSSAA,,..--eeeerrzzlliiww44oo....MM          ",
"        MM....SSSSSSnnOO&&99eeeerrddxxiiww44XXMMSS....MM        ",
"        MM....SSSSSSnnOO&&99eeeerrddxxiiww44XXMMSS....MM        ",
"      MM....SSSSBB$$@@88eeeeddppddddzzssii--..$$ZZSS....MM      ",
"      MM....SSSSBB$$@@88eeeeddppddddzzssii--..$$ZZSS....MM      ",
"    MM....SSSS>>..11eeeeddddzzzzcczzzzzzxxcchh##bbSSSS....MM    ",
"    MM....SSSS>>..11eeeeddddzzzzcczzzzzzxxcchh##bbSSSS....MM    ",
"  MM....SSSSSS..ffVVxxllllllvvVVcczzccccjjttii&&,,SSSSSS....MM  ",
"  MM....SSSSSS..ffVVxxllllllvvVVcczzccccjjttii&&,,SSSSSS....MM  ",
"MM....SSSSSSSS..88sswwwwqquuVVccxxvvll00yyiiyy&&bbSSSSSSSS....MM",
"MM....SSSSSSSS..88sswwwwqquuVVccxxvvll00yyiiyy&&bbSSSSSSSS....MM",
"MM....SSSSSSSS..88uuwwqquuVVxxxxxxtt66aaiiwwqq&&ggSSSSSSSS....MM",
"MM....SSSSSSSS..88uuwwqquuVVxxxxxxtt66aaiiwwqq&&ggSSSSSSSS....MM",
"  MM....SSSSSSXX22wwqqyyVVxxxxjj66yyiiuuqqqq==ooBBSSSSSS....MM  ",
"  MM....SSSSSSXX22wwqqyyVVxxxxjj66yyiiuuqqqq==ooBBSSSSSS....MM  ",
"    MM....SSSS%%....%%VVcccc7777iiiiwwqq55##$$BBSSSSSS....MM    ",
"    MM....SSSS%%....%%VVcccc7777iiiiwwqq55##$$BBSSSSSS....MM    ",
"      MM....SSSS>>%%VVvvll66uuiiuuqq00==..,,SSSSSSSS....MM      ",
"      MM....SSSS>>%%VVvvll66uuiiuuqq00==..,,SSSSSSSS....MM      ",
"        MM....>>%%CCvvtt00aaiiwwqq33@@%%ZZSSSSSSSS....MM        ",
"        MM....>>%%CCvvtt00aaiiwwqq33@@%%ZZSSSSSSSS....MM        ",
"          MM..%%VVll77aaaayyww00**OOnnSSSSSSSSSS....MM          ",
"          MM..%%VVll77aaaayyww00**OOnnSSSSSSSSSS....MM          ",
"          ::%%VVhhttssiiww0011oo::ZZSSSSSSSSSS....MM            ",
"          ::%%VVhhttssiiww0011oo::ZZSSSSSSSSSS....MM            ",
"        ;;$$ccttaaiiyyww55&&++NNSSSSSSSSSSSS....MM              ",
"        ;;$$ccttaaiiyyww55&&++NNSSSSSSSSSSSS....MM              ",
"      ::%%kkttssiiwwqq<<XX,,AASSSSSSSSSSSS....MM                ",
"      ::%%kkttssiiwwqq<<XX,,AASSSSSSSSSSSS....MM                ",
"    mm@@ccaassiiww55##..BBSSSSSSSSSSSSSS....MM                  ",
"    mm@@ccaassiiww55##..BBSSSSSSSSSSSSSS....MM                  ",
"    mm**ssuuww00--..%%....SSSSSSSSSSSS....MM                    ",
"    mm**ssuuww00--..%%....SSSSSSSSSSSS....MM                    ",
"    mm&&iiww33oo$$MMNN::....SSSSSSSS....MM                      ",
"    mm&&iiww33oo$$MMNN::....SSSSSSSS....MM                      ",
"    mm&&00==XX,,      MM::....SSSS....MM                        ",
"    mm&&00==XX,,      MM::....SSSS....MM                        ",
"    mmoooo$$,,          MMMM........MM                          ",
"    mmoooo$$,,          MMMM........MM                          ",
"      ggnn                  MM....MM                            ",
"      ggnn                  MM....MM                            ",
"                              MMMM                              ",
"                              MMMM                              "
};
