/* XPM */
static char *xpaint_16x16[] = {
/* columns rows colors chars-per-pixel */
"64 64 41 1 ",
"  c None",
". c black",
"X c #000004",
"o c #515052",
"O c #645F63",
"+ c #606161",
"@ c #656061",
"# c #626164",
"$ c #736F71",
"% c #727073",
"& c #820001",
"* c #FE0001",
"= c #CC0063",
"- c #D00065",
"; c #838700",
": c #818800",
"> c #FFFE00",
", c #000082",
"< c #010187",
"1 c #020288",
"2 c #0101FD",
"3 c #008682",
"4 c #008684",
"5 c #00FEFE",
"6 c #848582",
"7 c #848584",
"8 c #858688",
"9 c #959698",
"0 c #9B9E9B",
"q c #A6A7A2",
"w c #A5A5A6",
"e c #B1B6B2",
"r c #C6C6C5",
"t c #C5C8C5",
"y c #C6C7C9",
"u c #C7C9C8",
"i c #D5D6D5",
"p c #EEEEED",
"a c #EFEFF1",
"s c gray97",
"d c #FEFEFF",
/* pixels */
"                    @@@@7777....####7777....                    ",
"                    @@@@7777....####7777....                    ",
"                    @@@@7777....####7777....                    ",
"                    @@@@7777....####7777....                    ",
"@@@@....            oooo........oooo........            ....    ",
"@@@@....            oooo........oooo........            ....    ",
"@@@@....            oooo........oooo........            ....    ",
"@@@@....            oooo........oooo........            ....    ",
"++++6666....        6666dddd....4444rrrr....        ....6666....",
"++++6666....        6666dddd....4444rrrr....        ....6666....",
"++++6666....        6666dddd....4444rrrr....        ....6666....",
"++++6666....        6666dddd....4444rrrr....        ....6666....",
"@@@@ssss8888....    ****&&&&....444455551111    ;;;;dddd........",
"@@@@ssss8888....    ****&&&&....444455551111    ;;;;dddd........",
"@@@@ssss8888....    ****&&&&....444455551111    ;;;;dddd........",
"@@@@ssss8888....    ****&&&&....444455551111    ;;;;dddd........",
"    6666rrrr2222....****&&&&XXXX44445555<<<<::::rrrr7777....    ",
"    6666rrrr2222....****&&&&XXXX44445555<<<<::::rrrr7777....    ",
"    6666rrrr2222....****&&&&XXXX44445555<<<<::::rrrr7777....    ",
"    6666rrrr2222....****&&&&XXXX44445555<<<<::::rrrr7777....    ",
"        <<<<44442222====&&&&....33337777::::>>>>;;;;....        ",
"        <<<<44442222====&&&&....33337777::::>>>>;;;;....        ",
"        <<<<44442222====&&&&....33337777::::>>>>;;;;....        ",
"        <<<<44442222====&&&&....33337777::::>>>>;;;;....        ",
"            ,,,,4444----&&&&....4444;;;;>>>>;;;;....            ",
"            ,,,,4444----&&&&....4444;;;;>>>>;;;;....            ",
"            ,,,,4444----&&&&....4444;;;;>>>>;;;;....            ",
"            ,,,,4444----&&&&....4444;;;;>>>>;;;;....            ",
"        77777777$$$$77777777%%%%77777777%%%%66667777....        ",
"        77777777$$$$77777777%%%%77777777%%%%66667777....        ",
"        77777777$$$$77777777%%%%77777777%%%%66667777....        ",
"        77777777$$$$77777777%%%%77777777%%%%66667777....        ",
"        7777ddddddddddddaaaaiiiieeeerrrrrrrr%%%%6666....        ",
"        7777ddddddddddddaaaaiiiieeeerrrrrrrr%%%%6666....        ",
"        7777ddddddddddddaaaaiiiieeeerrrrrrrr%%%%6666....        ",
"        7777ddddddddddddaaaaiiiieeeerrrrrrrr%%%%6666....        ",
"            6666uuuu77777777$$$$7777%%%%OOOOXXXX....            ",
"            6666uuuu77777777$$$$7777%%%%OOOOXXXX....            ",
"            6666uuuu77777777$$$$7777%%%%OOOOXXXX....            ",
"            6666uuuu77777777$$$$7777%%%%OOOOXXXX....            ",
"            7777ppppppppiiiiuuuuwwww00007777####....            ",
"            7777ppppppppiiiiuuuuwwww00007777####....            ",
"            7777ppppppppiiiiuuuuwwww00007777####....            ",
"            7777ppppppppiiiiuuuuwwww00007777####....            ",
"            6666ddddppppiiiiyyyyqqqq00006666####....            ",
"            6666ddddppppiiiiyyyyqqqq00006666####....            ",
"            6666ddddppppiiiiyyyyqqqq00006666####....            ",
"            6666ddddppppiiiiyyyyqqqq00006666####....            ",
"            7777ddddddddppppiiiirrrr99996666++++....            ",
"            7777ddddddddppppiiiirrrr99996666++++....            ",
"            7777ddddddddppppiiiirrrr99996666++++....            ",
"            7777ddddddddppppiiiirrrr99996666++++....            ",
"            6666ddddddddppppiiiittttwwww6666####....            ",
"            6666ddddddddppppiiiittttwwww6666####....            ",
"            6666ddddddddppppiiiittttwwww6666####....            ",
"            6666ddddddddppppiiiittttwwww6666####....            ",
"            6666ddddddddppppiiiittttqqqq0000####....            ",
"            6666ddddddddppppiiiittttqqqq0000####....            ",
"            6666ddddddddppppiiiittttqqqq0000####....            ",
"            6666ddddddddppppiiiittttqqqq0000####....            ",
"                ................................                ",
"                ................................                ",
"                ................................                ",
"                ................................                "
};
