/* XPM */
static char *xterm_32x32[] = {
/* columns rows colors chars-per-pixel */
"64 64 49 1 ",
"  c None",
". c #010101",
"X c gray18",
"o c #203856",
"O c #213957",
"+ c #263F5B",
"@ c #2D425C",
"# c #334B67",
"$ c #494949",
"% c #425268",
"& c #46566B",
"* c #46566C",
"= c #536277",
"- c #D46E4E",
"; c #D47454",
": c #01359A",
"> c #083C9B",
", c #214D98",
"< c #0140A5",
"1 c #144BA6",
"2 c #224DA1",
"3 c #2852A3",
"4 c #2C58A1",
"5 c #2D59A2",
"6 c #2F59A8",
"7 c #3269AF",
"8 c #2861B5",
"9 c #3A69B2",
"0 c #4E6A9E",
"q c #517898",
"w c #577E9E",
"e c #6B789A",
"r c #4E7AAE",
"t c #0168CD",
"y c #016DD2",
"u c #0D70D1",
"i c #1676D4",
"p c #017CE1",
"a c #788EB8",
"s c #3C8AD2",
"d c #1686E5",
"f c #4D90DD",
"g c #5B95D6",
"h c #4091E2",
"j c #409EEE",
"k c #78C0EA",
"l c #80BBF6",
"z c #80C0FC",
"x c gray100",
/* pixels */
"                                                                ",
"                                                                ",
"                                                                ",
"                                                                ",
"                                                                ",
"                                                                ",
"    ww55555555555555555555555555555555555555555555555555qq      ",
"    ww55555555555555555555555555555555555555555555555555qq      ",
"  >>88ffffffffffffffffffffffffffffffffffffffffffffffffgg9966    ",
"  >>88ffffffffffffffffffffffffffffffffffffffffffffffffgg9966    ",
"  88ttttttttttttttttttttttttttttttttttttuukkhhiillhh00--77::##  ",
"  88ttttttttttttttttttttttttttttttttttttuukkhhiillhh00--77::##  ",
"  yyppppppppppppppppppppppppppppppppppppppzzjjddlljjrr;;ee<<++  ",
"  yyppppppppppppppppppppppppppppppppppppppzzjjddlljjrr;;ee<<++  ",
"  sskkkkkkkkkkkkkkkkkkkkkkkkkkkkkkkkkkkkzzkkkkkkkkkkkkkkkk11oo  ",
"  sskkkkkkkkkkkkkkkkkkkkkkkkkkkkkkkkkkkkzzkkkkkkkkkkkkkkkk11oo  ",
"  aa......................................................33oo  ",
"  aa......................................................33oo  ",
"  aa......................................................33oo  ",
"  aa......................................................33oo  ",
"  aa......................................................33oo  ",
"  aa......................................................33oo  ",
"  aa......................................................33oo  ",
"  aa......................................................33oo  ",
"  aa......$$xxxxxx$$........xx............................33oo  ",
"  aa......$$xxxxxx$$........xx............................33oo  ",
"  aa......xx$$..$$xx........xx$$..........................33oo  ",
"  aa......xx$$..$$xx........xx$$..........................33oo  ",
"  aa......xx............xx..$$xx..........................33oo  ",
"  aa......xx............xx..$$xx..........................33oo  ",
"  aa......xx..................xx$$........................33oo  ",
"  aa......xx..................xx$$........................33oo  ",
"  aa......xx$$..$$xx..........$$xx........................33oo  ",
"  aa......xx$$..$$xx..........$$xx........................33oo  ",
"  aa......$$xxxxxx$$....xx......xx..xxxxxxxxxxxxxx........33oo  ",
"  aa......$$xxxxxx$$....xx......xx..xxxxxxxxxxxxxx........33oo  ",
"  aa......................................................33oo  ",
"  aa......................................................33oo  ",
"  aa......................................................33oo  ",
"  aa......................................................33oo  ",
"  aa......................................................33oo  ",
"  aa......................................................33oo  ",
"  aa......................................................33oo  ",
"  aa......................................................33oo  ",
"  aa......................................................33oo  ",
"  aa......................................................33oo  ",
"  aa......................................................33oo  ",
"  aa......................................................33oo  ",
"  aa......................................................33oo  ",
"  aa......................................................33oo  ",
"  rrXXXXXXXXXXXXXXXXXXXXXXXXXXXXXXXXXXXXXXXXXXXXXXXXXXXXXX22oo  ",
"  rrXXXXXXXXXXXXXXXXXXXXXXXXXXXXXXXXXXXXXXXXXXXXXXXXXXXXXX22oo  ",
"  55,,,,,,,,,,,,,,,,,,,,,,,,,,,,,,,,,,,,,,,,,,,,,,,,,,,,,,,,@@  ",
"  55,,,,,,,,,,,,,,,,,,,,,,,,,,,,,,,,,,,,,,,,,,,,,,,,,,,,,,,,@@  ",
"    ==**%%%%%%%%%%%%%%%%%%%%%%%%%%%%%%%%%%%%%%%%%%%%%%%%%%&&    ",
"    ==**%%%%%%%%%%%%%%%%%%%%%%%%%%%%%%%%%%%%%%%%%%%%%%%%%%&&    ",
"                                                                ",
"                                                                ",
"                                                                ",
"                                                                ",
"                                                                ",
"                                                                ",
"                                                                ",
"                                                                "
};
