/* XPM */
static char *xterm_16x16[] = {
/* columns rows colors chars-per-pixel */
"32 32 40 1 ",
"  c None",
". c #010101",
"X c #142952",
"o c #152A52",
"O c #213656",
"+ c #24395B",
"@ c #325B71",
"# c #345E77",
"$ c #3A6077",
"% c #494949",
"& c #475164",
"* c #4C5667",
"= c #495568",
"- c #4D566A",
"; c #425F6D",
": c #54667F",
"> c #2B5184",
", c #3A5DA1",
"< c #3B72B9",
"1 c #3F74BD",
"2 c #425B87",
"3 c #586B84",
"4 c #596D84",
"5 c #65748A",
"6 c #507DA4",
"7 c #5878A1",
"8 c #4874B3",
"9 c #4074BE",
"0 c #237ED9",
"q c #4378C0",
"w c #4478C0",
"e c #7E889B",
"r c #1789ED",
"t c #188AED",
"y c #188CF0",
"u c #50ADFB",
"i c #5CB3FA",
"p c #60B3F8",
"a c #968EA3",
"s c gray100",
/* pixels */
"                                ",
"                                ",
"                                ",
"                                ",
"  <<9911111111111111wwqqww8877  ",
"  <<9911111111111111wwqqww8877  ",
"00yyttttttttttttttrriiuuppaa,,55",
"00yyttttttttttttttrriiuuppaa,,55",
"66@@################$$##$$;;>>::",
"66@@################$$##$$;;>>::",
"**..........................oo44",
"**..........................oo44",
"==..%%ssss%%......ss........oo44",
"==..%%ssss%%......ss........oo44",
"&&..ss%%%%ss..ss..ss%%......oo33",
"&&..ss%%%%ss..ss..ss%%......oo33",
"&&..ss............%%ss......oo33",
"&&..ss............%%ss......oo33",
"==..ss%%%%ss..ss....ss%%....oo44",
"==..ss%%%%ss..ss....ss%%....oo44",
"==..%%ssss%%........%%ss....oo33",
"==..%%ssss%%........%%ss....oo33",
"==..........................oo33",
"==..........................oo33",
"--..........................oo33",
"--..........................oo33",
"22OO++++++++++++++++++++++++@@::",
"22OO++++++++++++++++++++++++@@::",
"  eeeeeeeeeeeeeeaaeeeeeeeeee55  ",
"  eeeeeeeeeeeeeeaaeeeeeeeeee55  ",
"                                ",
"                                "
};
