/* XPM */
static char *desktop_win2k[] = {
/* columns rows colors chars-per-pixel */
"88 64 20 1 ",
"  c None",
". c black",
"X c #9C0000",
"o c #CE3100",
"O c #9C6300",
"+ c #FF5252",
"@ c #CE9C00",
"# c #FFCE00",
"$ c #9C9C63",
"% c #00639C",
"& c #31639C",
"* c #009CCE",
"= c #63CEFF",
"- c gray58",
"; c #ADAD94",
": c #CECE9C",
"> c #FFFF9C",
", c #FF9CCE",
"< c #FFFFCE",
"1 c white",
/* pixels */
"                                                            ++++oooo                    ",
"                                                            ++++oooo                    ",
"                                                            ++++oooo                    ",
"                                                            ++++oooo                    ",
"                                                        @@@@,,,,XXXX                    ",
"                                                        @@@@,,,,XXXX                    ",
"                                                        @@@@,,,,XXXX                    ",
"                                                        @@@@,,,,XXXX                    ",
"            ****************%%%%;;;;;;;;;;;;;;;;;;;;@@@@####OOOO....;;;;....            ",
"            ****************%%%%;;;;;;;;;;;;;;;;;;;;@@@@####OOOO....;;;;....            ",
"            ****************%%%%;;;;;;;;;;;;;;;;;;;;@@@@####OOOO....;;;;....            ",
"            ****************%%%%;;;;;;;;;;;;;;;;;;;;@@@@####OOOO....;;;;....            ",
"            ****====****%%%%::::11111111<<<<1111@@@@>>>>OOOO....****%%%%....            ",
"            ****====****%%%%::::11111111<<<<1111@@@@>>>>OOOO....****%%%%....            ",
"            ****====****%%%%::::11111111<<<<1111@@@@>>>>OOOO....****%%%%....            ",
"            ****====****%%%%::::11111111<<<<1111@@@@>>>>OOOO....****%%%%....            ",
"            ********%%%%::::11111111<<<<<<<<@@@@####OOOO....&&&&====%%%%....            ",
"            ********%%%%::::11111111<<<<<<<<@@@@####OOOO....&&&&====%%%%....            ",
"            ********%%%%::::11111111<<<<<<<<@@@@####OOOO....&&&&====%%%%....            ",
"            ********%%%%::::11111111<<<<<<<<@@@@####OOOO....&&&&====%%%%....            ",
"            ****%%%%::::1111------------@@@@>>>>OOOO....;;;;<<<<&&&&%%%%....            ",
"            ****%%%%::::1111------------@@@@>>>>OOOO....;;;;<<<<&&&&%%%%....            ",
"            ****%%%%::::1111------------@@@@>>>>OOOO....;;;;<<<<&&&&%%%%....            ",
"            ****%%%%::::1111------------@@@@>>>>OOOO....;;;;<<<<&&&&%%%%....            ",
"            %%%%::::11111111----1111@@@@####OOOO....;;;;<<<<::::::::&&&&....            ",
"            %%%%::::11111111----1111@@@@####OOOO....;;;;<<<<::::::::&&&&....            ",
"            %%%%::::11111111----1111@@@@####OOOO....;;;;<<<<::::::::&&&&....            ",
"            %%%%::::11111111----1111@@@@####OOOO....;;;;<<<<::::::::&&&&....            ",
"            ;;;;11111111<<<<----1111$$$$OOOO........<<<<::::<<<<;;;;----....            ",
"            ;;;;11111111<<<<----1111$$$$OOOO........<<<<::::<<<<;;;;----....            ",
"            ;;;;11111111<<<<----1111$$$$OOOO........<<<<::::<<<<;;;;----....            ",
"            ;;;;11111111<<<<----1111$$$$OOOO........<<<<::::<<<<;;;;----....            ",
"            ;;;;1111<<<<<<<<----1111....1111<<<<....::::<<<<;;;;::::----....            ",
"            ;;;;1111<<<<<<<<----1111....1111<<<<....::::<<<<;;;;::::----....            ",
"            ;;;;1111<<<<<<<<----1111....1111<<<<....::::<<<<;;;;::::----....            ",
"            ;;;;1111<<<<<<<<----1111....1111<<<<....::::<<<<;;;;::::----....            ",
"            ;;;;<<<<<<<<<<<<----111111111111<<<<....<<<<::::::::;;;;----....            ",
"            ;;;;<<<<<<<<<<<<----111111111111<<<<....<<<<::::::::;;;;----....            ",
"            ;;;;<<<<<<<<<<<<----111111111111<<<<....<<<<::::::::;;;;----....            ",
"            ;;;;<<<<<<<<<<<<----111111111111<<<<....<<<<::::::::;;;;----....            ",
"            ;;;;<<<<<<<<<<<<----111111111111<<<<....::::::::;;;;::::----....            ",
"            ;;;;<<<<<<<<<<<<----111111111111<<<<....::::::::;;;;::::----....            ",
"            ;;;;<<<<<<<<<<<<----111111111111<<<<....::::::::;;;;::::----....            ",
"            ;;;;<<<<<<<<<<<<----111111111111<<<<....::::::::;;;;::::----....            ",
"            ****<<<<<<<<<<<<----<<<<<<<<<<<<<<<<....::::;;;;::::;;;;&&&&....            ",
"            ****<<<<<<<<<<<<----<<<<<<<<<<<<<<<<....::::;;;;::::;;;;&&&&....            ",
"            ****<<<<<<<<<<<<----<<<<<<<<<<<<<<<<....::::;;;;::::;;;;&&&&....            ",
"            ****<<<<<<<<<<<<----<<<<<<<<<<<<<<<<....::::;;;;::::;;;;&&&&....            ",
"            ********<<<<<<<<........................;;;;::::;;;;&&&&&&&&....            ",
"            ********<<<<<<<<........................;;;;::::;;;;&&&&&&&&....            ",
"            ********<<<<<<<<........................;;;;::::;;;;&&&&&&&&....            ",
"            ********<<<<<<<<........................;;;;::::;;;;&&&&&&&&....            ",
"            ****====****<<<<<<<<::::<<<<::::::::;;;;::::;;;;&&&&====&&&&....            ",
"            ****====****<<<<<<<<::::<<<<::::::::;;;;::::;;;;&&&&====&&&&....            ",
"            ****====****<<<<<<<<::::<<<<::::::::;;;;::::;;;;&&&&====&&&&....            ",
"            ****====****<<<<<<<<::::<<<<::::::::;;;;::::;;;;&&&&====&&&&....            ",
"            %%%%%%%%%%%%****----------------------------&&&&&&&&&&&&&&&&....            ",
"            %%%%%%%%%%%%****----------------------------&&&&&&&&&&&&&&&&....            ",
"            %%%%%%%%%%%%****----------------------------&&&&&&&&&&&&&&&&....            ",
"            %%%%%%%%%%%%****----------------------------&&&&&&&&&&&&&&&&....            ",
"            ................................................................            ",
"            ................................................................            ",
"            ................................................................            ",
"            ................................................................            "
};
