/* XPM */
static char *desktop_winxp[] = {
/* columns rows colors chars-per-pixel */
"44 32 50 1 ",
"  c None",
". c #090605",
"X c #242222",
"o c #183873",
"O c #2F4E6E",
"+ c #535853",
"@ c #777941",
"# c #6D6A6E",
"$ c #A62D11",
"% c #CE4113",
"& c #D06929",
"* c #FF8816",
"= c #1841A5",
"- c #074DBA",
"; c #0861CE",
": c #2565C3",
"> c #3979C5",
", c #2169D0",
"< c #3775D7",
"1 c #317DE7",
"2 c #3487CC",
"3 c #2F8EDB",
"4 c #2489E1",
"5 c #3986E6",
"6 c #29A2F2",
"7 c #34B2F8",
"8 c #45A3E5",
"9 c #51B7FA",
"0 c #6EBAF1",
"q c #838283",
"w c #FFFCB3",
"e c #AECECA",
"r c #BFE2C0",
"t c #92C9EB",
"y c #BDD3EF",
"u c #A7CEFC",
"i c #A3D5F0",
"p c #A8DCFE",
"a c #B2F0FF",
"s c gray80",
"d c #D7D5CE",
"f c #FBF1D4",
"g c #FFFADD",
"h c #DBDFE9",
"j c #CEE3FF",
"k c #C5E8FB",
"l c #DCEEFA",
"z c #ECF8FE",
"x c #F9F8F8",
"c c white",
/* pixels */
"                        7777777777          ",
"                        7777777777          ",
"                77777777uuii770055qq        ",
"                77777777uuii770055qq        ",
"        44777744uuyycccccccccc8833##        ",
"        44777744uuyycccccccccc8833##        ",
"        44aa44ccccccyy9977>>cccc33qq        ",
"        44aa44ccccccyy9977>>cccc33qq        ",
"        4444ccgg669977cczz11gg33<<$$        ",
"        4444ccgg669977cczz11gg33<<$$        ",
"        44hhgggg66cccczzll2233jj&&**%%      ",
"        44hhgggg66cccczzll2233jj&&**%%      ",
"        44ggxxgg66cczzzz33kkjjpp<<%%++      ",
"        44ggxxgg66cczzzz33kkjjpp<<%%++      ",
"        44gggggg66zzzz@@jjtt3322;;++##      ",
"        44gggggg66zzzz@@jjtt3322;;++##      ",
"        44ffgggg66zz..XX553322gg;;qq        ",
"        44ffgggg66zz..XX553322gg;;qq        ",
"        44eeggff66lljjkkjj>>ggff;;##        ",
"        44eeggff66lljjkkjj>>ggff;;##        ",
"        44rrffff66kkjj>>>><<ffuu;;qq        ",
"        44rrffff66kkjj>>>><<ffuu;;qq        ",
"        --sswwww<<>><<wwwwwwuu----##        ",
"        --sswwww<<>><<wwwwwwuu----##        ",
"        ----ddffwwwwww,,::::,,##qq          ",
"        ----ddffwwwwww,,::::,,##qq          ",
"        ----==::,,::::qqqqqqqq              ",
"        ----==::,,::::qqqqqqqq              ",
"        OOooOOqq##qqqq                      ",
"        OOooOOqq##qqqq                      ",
"        qqqq##                              ",
"        qqqq##                              "
};
