/* XPM */
static char *linux[] = {
/* columns rows colors chars-per-pixel */
"114 40 6 1 ",
"  c black",
". c #0000F8",
"X c #00FC00",
"o c #B8BCB8",
"O c #F80000",
"+ c #F8FC00",
/* pixels */
"oooooooooooooooooooooooooooooooooooooooooooooooooooooooooooooooooooooooooooooooooooooooooooooooooooooooooooooooooo",
"oooooooooooooooooooooooooooooooooooooooooooooooooooooooooooooooooooooooooooooooooooooooooooooooooooooooooooooooooo",
"oooooooooooooooooooooooooooooooooooooooooooooooooooooooooooooooooooooooooooooooooooooooooooooooooooooooooooooooooo",
"oooooooooooooooooooooooooooooooooooooooooooooooooooooooooooooooooooooooooooooooooooooooooooooooooooooooooooooooooo",
"oooooooooooooooooooooooooooooooooooooooooooooooooooooooooooooooooooooooooooooooooooooooooooooooooooooooooooooooooo",
"oooooooooooooooooooooooooooooooooooooooooooooooooooooooooooooooooooooooooooooooooooooooooooooooooooooooooooooooooo",
"oooooooooooooooooooo        oooooooooooooooooooooooooooooooooooooooooooooooooooooooooooooooooooooooooooooooooooooo",
"oooooooooooooooooooo        oooooooooooooooooooooooooooooooooooooooooooooooooooooooooooooooooooooooooooooooooooooo",
"oooooooooooooooo                oooooooooooooooooooooooooooooooooooooooooooooooooooooooooooooooooooooooooooooooooo",
"oooooooooooooooo                oooooooooooooooooooooooooooooooooooooooooooooooooooooooooooooooooooooooooooooooooo",
"oo  oooooooooo      OO    XX      oooooooooo          oooooo    oooooooooooooooooooooooooooooooooooooo    oooooooo",
"oo  oooooooooo      OO    XX      oooooooooo          oooooo    oooooooooooooooooooooooooooooooooooooo    oooooooo",
"oo  oo  oo        OOOO    XXXX    oooooooo    oooooo    oooo    oooooooooooooooooooooooooooooooooooooo    oooooooo",
"oo  oo  oo        OOOO    XXXX    oooooooo    oooooo    oooo    oooooooooooooooooooooooooooooooooooooo    oooooooo",
"oooooo            OOOO    XXXX    oooooooo    oooooo    oooo    oooooooooooooooooooooooooooooooooooooo    oooooooo",
"oooooo            OOOO    XXXX    oooooooo    oooooo    oooo    oooooooooooooooooooooooooooooooooooooo    oooooooo",
"ooOOoooooooooo    OO        XX    oooooooo    oooooooooo            oooo          oo            oo            oooo",
"ooOOoooooooooo    OO        XX    oooooooo    oooooooooo            oooo          oo            oo            oooo",
"ooOOooOOooOOOO                    oooooooooo      oooooooooo    oooooo    oooooo          oooo    oooo    oooooooo",
"ooOOooOOooOOOO                    oooooooooo      oooooooooo    oooooo    oooooo          oooo    oooo    oooooooo",
"ooooooOOOOOOOO      ..    ++      oooooooooooooo      oooooo    oooooooooooo            oooooo    oooo    oooooooo",
"ooooooOOOOOOOO      ..    ++      oooooooooooooo      oooooo    oooooooooooo            oooooo    oooo    oooooooo",
"oo..oooooooooo    ....    ++++    oooooooooooooooooo    oooo    oooooooo      oo        oooooooooooooo    oooooooo",
"oo..oooooooooo    ....    ++++    oooooooooooooooooo    oooo    oooooooo      oo        oooooooooooooo    oooooooo",
"oo..oo..oo....    ....    ++++    oooooooo    oooooo    oooo    oooooo    oooooo        oooooooooooooo    oooooooo",
"oo..oo..oo....    ....    ++++    oooooooo    oooooo    oooo    oooooo    oooooo        oooooooooooooo    oooooooo",
"oooooo........    ..        ++    oooooooo    oooooo    oooo    oo        oooo          oooooooooooooo    oo    oo",
"oooooo........    ..        ++    oooooooo    oooooo    oooo    oo        oooo          oooooooooooooo    oo    oo",
"oo  oooooooooo                    oooooooooo          oooooooo      oooo                oooooooooooooooo      oooo",
"oo  oooooooooo                    oooooooooo          oooooooo      oooo                oooooooooooooooo      oooo",
"oo  oo  oo          oooooooo      oooooooooooooooooooooooooooooooooooooooooooooooooooooooooooooooooooooooooooooooo",
"oo  oo  oo          oooooooo      oooooooooooooooooooooooooooooooooooooooooooooooooooooooooooooooooooooooooooooooo",
"oooooo          oooooooooooooooo  oooooooooooooooooooooooooooooooooooooooooooooooooooooooooooooooooooooooooooooooo",
"oooooo          oooooooooooooooo  oooooooooooooooooooooooooooooooooooooooooooooooooooooooooooooooooooooooooooooooo",
"oooooooooooooooooooooooooooooooooooooooooooooooooooooooooooooooooooooooooooooooooooooooooooooooooooooooooooooooooo",
"oooooooooooooooooooooooooooooooooooooooooooooooooooooooooooooooooooooooooooooooooooooooooooooooooooooooooooooooooo",
"oooooooooooooooooooooooooooooooooooooooooooooooooooooooooooooooooooooooooooooooooooooooooooooooooooooooooooooooooo",
"oooooooooooooooooooooooooooooooooooooooooooooooooooooooooooooooooooooooooooooooooooooooooooooooooooooooooooooooooo",
"oooooooooooooooooooooooooooooooooooooooooooooooooooooooooooooooooooooooooooooooooooooooooooooooooooooooooooooooooo",
"oooooooooooooooooooooooooooooooooooooooooooooooooooooooooooooooooooooooooooooooooooooooooooooooooooooooooooooooooo"
};
