/* XPM */
static char *windows[] = {
/* columns rows colors chars-per-pixel */
"42 40 3 1 ",
"  c #C0C0C0",
". c white",
"X c black",
/* pixels */
"                                          ",
"                                          ",
"                                          ",
"                                          ",
"  XXXXXXXXXXXXXXXXXXXXXX                  ",
"  XXXXXXXXXXXXXXXXXXXXXX                  ",
"  XXXXXXXXXXXXXXXXXXXXXX                  ",
"  XXXXXXXXXXXXXXXXXXXXXX                  ",
"  XX..................XX                  ",
"  XX..................XX                  ",
"  XX..XXXXXXXXXXXXXXXXXXXXXXXXXX          ",
"  XX..XXXXXXXXXXXXXXXXXXXXXXXXXX          ",
"  XX......XXXXXXXXXXXXXXXXXXXXXX          ",
"  XX......XXXXXXXXXXXXXXXXXXXXXX          ",
"  XX..XXXXXX..................XX          ",
"  XX..XXXXXX..................XX          ",
"  XX......XX..XXXXXXXXXXXXXXXXXXXXXXXXXX  ",
"  XX......XX..XXXXXXXXXXXXXXXXXXXXXXXXXX  ",
"  XX..XXXXXX......XXXXXXXXXXXXXXXXXXXXXX  ",
"  XX..XXXXXX......XXXXXXXXXXXXXXXXXXXXXX  ",
"  XX......XX..XXXXXX..................XX  ",
"  XX......XX..XXXXXX..................XX  ",
"  XXXXXXXXXX......XX..XXXXXXXXXXXXXX..XX  ",
"  XXXXXXXXXX......XX..XXXXXXXXXXXXXX..XX  ",
"          XX..XXXXXX..................XX  ",
"          XX..XXXXXX..................XX  ",
"          XX......XX..XXXXXXXXXXXXXX..XX  ",
"          XX......XX..XXXXXXXXXXXXXX..XX  ",
"          XXXXXXXXXX..................XX  ",
"          XXXXXXXXXX..................XX  ",
"                  XX..XXXXXXXXXXXXXX..XX  ",
"                  XX..XXXXXXXXXXXXXX..XX  ",
"                  XX..................XX  ",
"                  XX..................XX  ",
"                  XXXXXXXXXXXXXXXXXXXXXX  ",
"                  XXXXXXXXXXXXXXXXXXXXXX  ",
"                                          ",
"                                          ",
"                                          ",
"                                          "
};
