/* XPM */
static char *closeI[] = {
/* columns rows colors chars-per-pixel */
"38 72 6 1 ",
"  c black",
". c #7B7B7B",
"X c #7B7D7B",
"o c red",
"O c #BDBEBD",
"+ c white",
/* pixels */
"......................................",
"......................................",
"......................................",
"......................................",
"..++++++++++++++++++++++++++++++  ....",
"..++++++++++++++++++++++++++++++  ....",
"..++OOOOOOOOOOOOOOOOOOOOOOOOOOXX  ....",
"..++OOOOOOOOOOOOOOOOOOOOOOOOOOXX  ....",
"..++OOOOOOOOOOOOOOOOOOOOOOOOOOXX  ....",
"..++OOOOOOOOOOOOOOOOOOOOOOOOOOXX  ....",
"..++OOOOOO    OOOOOOOO    OOOOXX  ....",
"..++OOOOOO    OOOOOOOO    OOOOXX  ....",
"..++OOOOOOOO    OOOO    OOOOOOXX  ....",
"..++OOOOOOOO    OOOO    OOOOOOXX  ....",
"..++OOOOOOOOOO        OOOOOOOOXX  ....",
"..++OOOOOOOOOO        OOOOOOOOXX  ....",
"..++OOOOOOOOOOOO    OOOOOOOOOOXX  ....",
"..++OOOOOOOOOOOO    OOOOOOOOOOXX  ....",
"..++OOOOOOOOOO        OOOOOOOOXX  ....",
"..++OOOOOOOOOO        OOOOOOOOXX  ....",
"..++OOOOOOOO    OOOO    OOOOOOXX  ....",
"..++OOOOOOOO    OOOO    OOOOOOXX  ....",
"..++OOOOOO    OOOOOOOO    OOOOXX  ....",
"..++OOOOOO    OOOOOOOO    OOOOXX  ....",
"..++OOOOOOOOOOOOOOOOOOOOOOOOOOXX  ....",
"..++OOOOOOOOOOOOOOOOOOOOOOOOOOXX  ....",
"..++OOOOOOOOOOOOOOOOOOOOOOOOOOXX  ....",
"..++OOOOOOOOOOOOOOOOOOOOOOOOOOXX  ....",
"..++XXXXXXXXXXXXXXXXXXXXXXXXXXXX  ....",
"..++XXXXXXXXXXXXXXXXXXXXXXXXXXXX  ....",
"..                                ....",
"..                                ....",
"......................................",
"......................................",
"......................................",
"......................................",
"......................................",
"......................................",
"......................................",
"......................................",
"..++++++++++++++++++++++++++++++  ....",
"..++++++++++++++++++++++++++++++  ....",
"..++OOOOOOOOOOOOOOOOOOOOOOOOOOXX  ....",
"..++OOOOOOOOOOOOOOOOOOOOOOOOOOXX  ....",
"..++OOOOOOOOOOOOOOOOOOOOOOOOOOXX  ....",
"..++OOOOOOOOOOOOOOOOOOOOOOOOOOXX  ....",
"..++OOOOOOooooOOOOOOOOooooOOOOXX  ....",
"..++OOOOOOooooOOOOOOOOooooOOOOXX  ....",
"..++OOOOOOOOooooOOOOooooOOOOOOXX  ....",
"..++OOOOOOOOooooOOOOooooOOOOOOXX  ....",
"..++OOOOOOOOOOooooooooOOOOOOOOXX  ....",
"..++OOOOOOOOOOooooooooOOOOOOOOXX  ....",
"..++OOOOOOOOOOOOooooOOOOOOOOOOXX  ....",
"..++OOOOOOOOOOOOooooOOOOOOOOOOXX  ....",
"..++OOOOOOOOOOooooooooOOOOOOOOXX  ....",
"..++OOOOOOOOOOooooooooOOOOOOOOXX  ....",
"..++OOOOOOOOooooOOOOooooOOOOOOXX  ....",
"..++OOOOOOOOooooOOOOooooOOOOOOXX  ....",
"..++OOOOOOooooOOOOOOOOooooOOOOXX  ....",
"..++OOOOOOooooOOOOOOOOooooOOOOXX  ....",
"..++OOOOOOOOOOOOOOOOOOOOOOOOOOXX  ....",
"..++OOOOOOOOOOOOOOOOOOOOOOOOOOXX  ....",
"..++OOOOOOOOOOOOOOOOOOOOOOOOOOXX  ....",
"..++OOOOOOOOOOOOOOOOOOOOOOOOOOXX  ....",
"..++XXXXXXXXXXXXXXXXXXXXXXXXXXXX  ....",
"..++XXXXXXXXXXXXXXXXXXXXXXXXXXXX  ....",
"..                                ....",
"..                                ....",
"......................................",
"......................................",
"......................................",
"......................................"
};
