/* XPM */
static char *closeA[] = {
/* columns rows colors chars-per-pixel */
"38 72 6 1 ",
"  c black",
". c #00007B",
"X c #7B7B7B",
"o c gray74",
"O c gray87",
"+ c white",
/* pixels */
"......................................",
"......................................",
"......................................",
"......................................",
"..++++++++++++++++++++++++++++++  ....",
"..++++++++++++++++++++++++++++++  ....",
"..++OOOOOOOOOOOOOOOOOOOOOOOOOOXX  ....",
"..++OOOOOOOOOOOOOOOOOOOOOOOOOOXX  ....",
"..++OOooooooooooooooooooooooooXX  ....",
"..++OOooooooooooooooooooooooooXX  ....",
"..++OOoooo    oooooooo    ooooXX  ....",
"..++OOoooo    oooooooo    ooooXX  ....",
"..++OOoooooo    oooo    ooooooXX  ....",
"..++OOoooooo    oooo    ooooooXX  ....",
"..++OOoooooooo        ooooooooXX  ....",
"..++OOoooooooo        ooooooooXX  ....",
"..++OOoooooooooo    ooooooooooXX  ....",
"..++OOoooooooooo    ooooooooooXX  ....",
"..++OOoooooooo        ooooooooXX  ....",
"..++OOoooooooo        ooooooooXX  ....",
"..++OOoooooo    oooo    ooooooXX  ....",
"..++OOoooooo    oooo    ooooooXX  ....",
"..++OOoooo    oooooooo    ooooXX  ....",
"..++OOoooo    oooooooo    ooooXX  ....",
"..++OOooooooooooooooooooooooooXX  ....",
"..++OOooooooooooooooooooooooooXX  ....",
"..++OOooooooooooooooooooooooooXX  ....",
"..++OOooooooooooooooooooooooooXX  ....",
"..++XXXXXXXXXXXXXXXXXXXXXXXXXXXX  ....",
"..++XXXXXXXXXXXXXXXXXXXXXXXXXXXX  ....",
"..                                ....",
"..                                ....",
"......................................",
"......................................",
"......................................",
"......................................",
"......................................",
"......................................",
"......................................",
"......................................",
"..                              ++....",
"..                              ++....",
"..  XXXXXXXXXXXXXXXXXXXXXXXXXXOO++....",
"..  XXXXXXXXXXXXXXXXXXXXXXXXXXOO++....",
"..  XXooooooooooooooooooooooooOO++....",
"..  XXooooooooooooooooooooooooOO++....",
"..  XXooooooooooooooooooooooooOO++....",
"..  XXooooooooooooooooooooooooOO++....",
"..  XXoooooo    oooooooo    ooOO++....",
"..  XXoooooo    oooooooo    ooOO++....",
"..  XXoooooooo    oooo    ooooOO++....",
"..  XXoooooooo    oooo    ooooOO++....",
"..  XXoooooooooo        ooooooOO++....",
"..  XXoooooooooo        ooooooOO++....",
"..  XXoooooooooooo    ooooooooOO++....",
"..  XXoooooooooooo    ooooooooOO++....",
"..  XXoooooooooo        ooooooOO++....",
"..  XXoooooooooo        ooooooOO++....",
"..  XXoooooooo    oooo    ooooOO++....",
"..  XXoooooooo    oooo    ooooOO++....",
"..  XXoooooo    oooooooo    ooOO++....",
"..  XXoooooo    oooooooo    ooOO++....",
"..  XXooooooooooooooooooooooooOO++....",
"..  XXooooooooooooooooooooooooOO++....",
"..  OOOOOOOOOOOOOOOOOOOOOOOOOOOO++....",
"..  OOOOOOOOOOOOOOOOOOOOOOOOOOOO++....",
"..++++++++++++++++++++++++++++++++....",
"..++++++++++++++++++++++++++++++++....",
"......................................",
"......................................",
"......................................",
"......................................"
};
