/* XPM */
static char *frameABR[] = {
/* columns rows colors chars-per-pixel */
"70 62 3 1 ",
"  c black",
". c #7B7B7B",
"X c gray74",
/* pixels */
"XXXXXXXXXXXXXXXXXX..  ........................................XXXX..  ",
"XXXXXXXXXXXXXXXXXX..  ........................................XXXX..  ",
"XXXXXXXXXXXXXXXXXX..  ........................................XXXX..  ",
"XXXXXXXXXXXXXXXXXX..  ........................................XXXX..  ",
"XXXXXXXXXXXXXXXXXX..  ........................................XXXX..  ",
"XXXXXXXXXXXXXXXXXX..  ........................................XXXX..  ",
"XXXXXXXXXXXXXXXXXX..  ........................................XXXX..  ",
"XXXXXXXXXXXXXXXXXX..  ........................................XXXX..  ",
"XXXXXXXXXXXXXXXXXX..  ........................................XXXX..  ",
"XXXXXXXXXXXXXXXXXX..  ........................................XXXX..  ",
"XXXXXXXXXXXXXXXXXX..  ........................................XXXX..  ",
"XXXXXXXXXXXXXXXXXX..  ........................................XXXX..  ",
"XXXXXXXXXXXXXXXXXX..  ........................................XXXX..  ",
"XXXXXXXXXXXXXXXXXX..  ........................................XXXX..  ",
"XXXXXXXXXXXXXXXXXX..  ........................................XXXX..  ",
"XXXXXXXXXXXXXXXXXX..  ........................................XXXX..  ",
"XXXXXXXXXXXXXXXXXX..  ........................................XXXX..  ",
"XXXXXXXXXXXXXXXXXX..  ........................................XXXX..  ",
"XXXXXXXXXXXXXXXXXX..  ........................................XXXX..  ",
"XXXXXXXXXXXXXXXXXX..  ........................................XXXX..  ",
"XXXXXXXXXXXXXXXXXX..  ........................................XXXX..  ",
"XXXXXXXXXXXXXXXXXX..  ........................................XXXX..  ",
"XXXXXXXXXXXXXXXXXX..  ........................................XXXX..  ",
"XXXXXXXXXXXXXXXXXX..  ........................................XXXX..  ",
"XXXXXXXXXXXXXXXXXX..  ........................................XXXX..  ",
"XXXXXXXXXXXXXXXXXX..  ........................................XXXX..  ",
"XXXXXXXXXXXXXXXXXX..  ........................................XXXX..  ",
"XXXXXXXXXXXXXXXXXX..  ........................................XXXX..  ",
"XXXXXXXXXXXXXXXXXX..  ........................................XXXX..  ",
"XXXXXXXXXXXXXXXXXX..  ........................................XXXX..  ",
"XXXXXXXXXXXXXXXXXX..  ........................................XXXX..  ",
"XXXXXXXXXXXXXXXXXX..  ........................................XXXX..  ",
"XXXXXXXXXXXXXXXXXX..  ........................................XXXX..  ",
"XXXXXXXXXXXXXXXXXX..  ........................................XXXX..  ",
"....................  ........................................XXXX..  ",
"....................  ........................................XXXX..  ",
"                      ........................................XXXX..  ",
"                      ........................................XXXX..  ",
"..............................................................XXXX..  ",
"..............................................................XXXX..  ",
"..............................................................XXXX..  ",
"..............................................................XXXX..  ",
"..............................................................XXXX..  ",
"..............................................................XXXX..  ",
"..............................................................XXXX..  ",
"..............................................................XXXX..  ",
"..............................................................XXXX..  ",
"..............................................................XXXX..  ",
"..............................................................XXXX..  ",
"..............................................................XXXX..  ",
"..............................................................XXXX..  ",
"..............................................................XXXX..  ",
"..............................................................XXXX..  ",
"..............................................................XXXX..  ",
"XXXXXXXXXXXXXXXXXXXXXXXXXXXXXXXXXXXXXXXXXXXXXXXXXXXXXXXXXXXXXXXXXX..  ",
"XXXXXXXXXXXXXXXXXXXXXXXXXXXXXXXXXXXXXXXXXXXXXXXXXXXXXXXXXXXXXXXXXX..  ",
"XXXXXXXXXXXXXXXXXXXXXXXXXXXXXXXXXXXXXXXXXXXXXXXXXXXXXXXXXXXXXXXXXX..  ",
"XXXXXXXXXXXXXXXXXXXXXXXXXXXXXXXXXXXXXXXXXXXXXXXXXXXXXXXXXXXXXXXXXX..  ",
"....................................................................  ",
"....................................................................  ",
"                                                                      ",
"                                                                      "
};
