/* XPM */
static char *frameITL[] = {
/* columns rows colors chars-per-pixel */
"70 62 6 1 ",
"  c black",
". c #7B7B7B",
"X c yellow",
"o c gray74",
"O c gray87",
"+ c white",
/* pixels */
"OOOOOOOOOOOOOOOOOOOOOOOOOOOOOOOOOOOOOOOOOOOOOOOOOOOOOOOOOOOOOOOOOOOOOO",
"OOOOOOOOOOOOOOOOOOOOOOOOOOOOOOOOOOOOOOOOOOOOOOOOOOOOOOOOOOOOOOOOOOOOOO",
"OO++++++++++++++++++++++++++++++++++++++++++++++++++++++++++++++++++++",
"OO++++++++++++++++++++++++++++++++++++++++++++++++++++++++++++++++++++",
"OO++oooooooooooooooooooooooooooooooooooooooooooooooooooooooooooooooooo",
"OO++oooooooooooooooooooooooooooooooooooooooooooooooooooooooooooooooooo",
"OO++oooooooooooooooooooooooooooooooooooooooooooooooooooooooooooooooooo",
"OO++oooooooooooooooooooooooooooooooooooooooooooooooooooooooooooooooooo",
"OO++oooo..............................................................",
"OO++oooo..............................................................",
"OO++oooo..............................................................",
"OO++oooo..............................................................",
"OO++oooo..............................................................",
"OO++oooo..............................................................",
"OO++oooo..........++++++++++..........................................",
"OO++oooo..........++++++++++..........................................",
"OO++oooo........++ooXXooXXoo++......................oooooooooo........",
"OO++oooo........++ooXXooXXoo++......................oooooooooo........",
"OO++oooo........++XXooXXooXXoo++++++++++..  ......oooo......oooo......",
"OO++oooo........++XXooXXooXXoo++++++++++..  ......oooo......oooo......",
"OO++oooo........++ooXXooXXooXXooXXooXXoo..  ......oooo................",
"OO++oooo........++ooXXooXXooXXooXXooXXoo..  ......oooo................",
"OO++oooo..............................XX..  ......oooo............oooo",
"OO++oooo..............................XX..  ......oooo............oooo",
"OO++oooo......++++++++++++++++++++..  oo..  ......oooo................",
"OO++oooo......++++++++++++++++++++..  oo..  ......oooo................",
"OO++oooo......++ooXXooXXooXXooXXooXX  ....  ......oooo................",
"OO++oooo......++ooXXooXXooXXooXXooXX  ....  ......oooo................",
"OO++oooo........++ooXXooXXooXXooXXoo..  ..  ......oooo................",
"OO++oooo........++ooXXooXXooXXooXXoo..  ..  ......oooo................",
"OO++oooo........++XXooXXooXXooXXooXXoo  ..  ......oooo......oooo......",
"OO++oooo........++XXooXXooXXooXXooXXoo  ..  ......oooo......oooo......",
"OO++oooo..........++XXooXXooXXooXXooXX..    ........oooooooooo....oooo",
"OO++oooo..........++XXooXXooXXooXXooXX..    ........oooooooooo....oooo",
"OO++oooo................................    ..........................",
"OO++oooo................................    ..........................",
"OO++oooo..........                          ..........................",
"OO++oooo..........                          ..........................",
"OO++oooo..............................................................",
"OO++oooo..............................................................",
"OO++oooo..............................................................",
"OO++oooo..............................................................",
"OO++oooo..............................................................",
"OO++oooo..............................................................",
"OO++oooooooooooooooooooooooooooooooooooooooooooooooooooooooooooooooooo",
"OO++oooooooooooooooooooooooooooooooooooooooooooooooooooooooooooooooooo",
"OO++oooooooooooooooooooooooooooooooooooooooooooooooooooooooooooooooooo",
"OO++oooooooooooooooooooooooooooooooooooooooooooooooooooooooooooooooooo",
"OO++oooooooooooooooooooooooooooooooooooooooooooooooooooooooooooooooooo",
"OO++oooooooooooooooooooooooooooooooooooooooooooooooooooooooooooooooooo",
"OO++oooooooooooooooooooooooooooooooooooooooooooooooooooooooooooooooooo",
"OO++oooooooooooooooooooooooooooooooooooooooooooooooooooooooooooooooooo",
"OO++oooooooooooooooooooooooooooooooooooooooooooooooooooooooooooooooooo",
"OO++oooooooooooooooooooooooooooooooooooooooooooooooooooooooooooooooooo",
"OO++oooooooooooooooooo        oooooooooooooooooooooooooooooooooooooooo",
"OO++oooooooooooooooooo        oooooooooooooooooooooooooooooooooooooooo",
"OO++oooooooooooooooooo  oooooo  oooooooooooooooooo  oooooooooooooooo  ",
"OO++oooooooooooooooooo  oooooo  oooooooooooooooooo  oooooooooooooooo  ",
"OO++oooooooooooooooooo  oooooooo  oooooooooooooooo  oooooooooooooooo  ",
"OO++oooooooooooooooooo  oooooooo  oooooooooooooooo  oooooooooooooooo  ",
"OO++oooooooooooooooooo  oooooooo  oooooo      oooo    oooo      oooo  ",
"OO++oooooooooooooooooo  oooooooo  oooooo      oooo    oooo      oooo  "
};
