/* XPM */
static char *frameATR[] = {
/* columns rows colors chars-per-pixel */
"70 62 5 1 ",
"  c black",
". c #7B7B7B",
"X c gray74",
"o c gray87",
"O c white",
/* pixels */
"oooooooooooooooooooooooooooooooooooooooooooooooooooooooooooooooooooo  ",
"oooooooooooooooooooooooooooooooooooooooooooooooooooooooooooooooooooo  ",
"OOOOOOOOOOOOOOOOOOOOOOOOOOOOOOOOOOOOOOOOOOOOOOOOOOOOOOOOOOOOOOOOOO..  ",
"OOOOOOOOOOOOOOOOOOOOOOOOOOOOOOOOOOOOOOOOOOOOOOOOOOOOOOOOOOOOOOOOOO..  ",
"XXXXXXXXXXXXXXXXXXXXXXXXXXXXXXXXXXXXXXXXXXXXXXXXXXXXXXXXXXXXXXXXXX..  ",
"XXXXXXXXXXXXXXXXXXXXXXXXXXXXXXXXXXXXXXXXXXXXXXXXXXXXXXXXXXXXXXXXXX..  ",
"XXXXXXXXXXXXXXXXXXXXXXXXXXXXXXXXXXXXXXXXXXXXXXXXXXXXXXXXXXXXXXXXXX..  ",
"XXXXXXXXXXXXXXXXXXXXXXXXXXXXXXXXXXXXXXXXXXXXXXXXXXXXXXXXXXXXXXXXXX..  ",
"..............................................................XXXX..  ",
"..............................................................XXXX..  ",
"..............................................................XXXX..  ",
"..............................................................XXXX..  ",
"OOOOOOOOOOOOOOOOOOOO  ....OOOOOOOOOOOOOOOOOOOOOOOOOOOOOO  ....XXXX..  ",
"OOOOOOOOOOOOOOOOOOOO  ....OOOOOOOOOOOOOOOOOOOOOOOOOOOOOO  ....XXXX..  ",
"oooooooooooooooooo..  ....OOoooooooooooooooooooooooooo..  ....XXXX..  ",
"oooooooooooooooooo..  ....OOoooooooooooooooooooooooooo..  ....XXXX..  ",
"              XXXX..  ....OOooXXXXXXXXXXXXXXXXXXXXXXXX..  ....XXXX..  ",
"              XXXX..  ....OOooXXXXXXXXXXXXXXXXXXXXXXXX..  ....XXXX..  ",
"              XXXX..  ....OOooXXXX    XXXXXXXX    XXXX..  ....XXXX..  ",
"              XXXX..  ....OOooXXXX    XXXXXXXX    XXXX..  ....XXXX..  ",
"XXXXXXXXXXXX  XXXX..  ....OOooXXXXXX    XXXX    XXXXXX..  ....XXXX..  ",
"XXXXXXXXXXXX  XXXX..  ....OOooXXXXXX    XXXX    XXXXXX..  ....XXXX..  ",
"XXXXXXXXXXXX  XXXX..  ....OOooXXXXXXXX        XXXXXXXX..  ....XXXX..  ",
"XXXXXXXXXXXX  XXXX..  ....OOooXXXXXXXX        XXXXXXXX..  ....XXXX..  ",
"XXXXXXXXXXXX  XXXX..  ....OOooXXXXXXXXXX    XXXXXXXXXX..  ....XXXX..  ",
"XXXXXXXXXXXX  XXXX..  ....OOooXXXXXXXXXX    XXXXXXXXXX..  ....XXXX..  ",
"XXXXXXXXXXXX  XXXX..  ....OOooXXXXXXXX        XXXXXXXX..  ....XXXX..  ",
"XXXXXXXXXXXX  XXXX..  ....OOooXXXXXXXX        XXXXXXXX..  ....XXXX..  ",
"XXXXXXXXXXXX  XXXX..  ....OOooXXXXXX    XXXX    XXXXXX..  ....XXXX..  ",
"XXXXXXXXXXXX  XXXX..  ....OOooXXXXXX    XXXX    XXXXXX..  ....XXXX..  ",
"XXXXXXXXXXXX  XXXX..  ....OOooXXXX    XXXXXXXX    XXXX..  ....XXXX..  ",
"XXXXXXXXXXXX  XXXX..  ....OOooXXXX    XXXXXXXX    XXXX..  ....XXXX..  ",
"              XXXX..  ....OOooXXXXXXXXXXXXXXXXXXXXXXXX..  ....XXXX..  ",
"              XXXX..  ....OOooXXXXXXXXXXXXXXXXXXXXXXXX..  ....XXXX..  ",
"XXXXXXXXXXXXXXXXXX..  ....OOooXXXXXXXXXXXXXXXXXXXXXXXX..  ....XXXX..  ",
"XXXXXXXXXXXXXXXXXX..  ....OOooXXXXXXXXXXXXXXXXXXXXXXXX..  ....XXXX..  ",
"....................  ....OO............................  ....XXXX..  ",
"....................  ....OO............................  ....XXXX..  ",
"                      ....                                ....XXXX..  ",
"                      ....                                ....XXXX..  ",
"..............................................................XXXX..  ",
"..............................................................XXXX..  ",
"..............................................................XXXX..  ",
"..............................................................XXXX..  ",
"XXXXXXXXXXXXXXXXXXXXXXXXXXXXXXXXXXXXXXXXXXXXXXXXXXXXXXXXXXXXXXXXXX..  ",
"XXXXXXXXXXXXXXXXXXXXXXXXXXXXXXXXXXXXXXXXXXXXXXXXXXXXXXXXXXXXXXXXXX..  ",
"XXXXXXXXXXXXXXXXXXXXXXXXXXXXXXXXXXXXXXXXXXXXXXXXXXXXXXXXXXXXXXXXXX..  ",
"XXXXXXXXXXXXXXXXXXXXXXXXXXXXXXXXXXXXXXXXXXXXXXXXXXXXXXXXXXXXXXXXXX..  ",
"XXXXXXXXXXXXXXXXXXXXXXXXXXXXXXXXXXXXXXXXXXXXXXXXXXXXXXXXXXXXXXXXXX..  ",
"XXXXXXXXXXXXXXXXXXXXXXXXXXXXXXXXXXXXXXXXXXXXXXXXXXXXXXXXXXXXXXXXXX..  ",
"XXXXXXXXXXXXXXXXXXXXXXXXXXXXXXXXXXXXXXXXXXXXXXXXXXXXXXXXXXXXXXXXXX..  ",
"XXXXXXXXXXXXXXXXXXXXXXXXXXXXXXXXXXXXXXXXXXXXXXXXXXXXXXXXXXXXXXXXXX..  ",
"XXXXXXXXXXXXXXXXXXXXXXXXXXXXXXXXXXXXXXXXXXXXXXXXXXXXXXXXXXXXXXXXXX..  ",
"XXXXXXXXXXXXXXXXXXXXXXXXXXXXXXXXXXXXXXXXXXXXXXXXXXXXXXXXXXXXXXXXXX..  ",
"XXXXXXXXXXXXXXXXXXXXXXXXXXXXXXXXXXXXXXXXXXXXXXXXXXXXXXXXXXXXXXXXXX..  ",
"XXXXXXXXXXXXXXXXXXXXXXXXXXXXXXXXXXXXXXXXXXXXXXXXXXXXXXXXXXXXXXXXXX..  ",
"XXXXXXXXXXXXXXXXXXXXXXXXXXXXXXXXXXXXXXXXXXXXXXXXXXXXXXXXXXXXXXXXXX..  ",
"XXXXXXXXXXXXXXXXXXXXXXXXXXXXXXXXXXXXXXXXXXXXXXXXXXXXXXXXXXXXXXXXXX..  ",
"XXXXXXXXXXXXXXXXXXXXXXXXXXXXXXXXXXXXXXXXXXXXXXXXXXXXXXXXXXXXXXXXXX..  ",
"XXXXXXXXXXXXXXXXXXXXXXXXXXXXXXXXXXXXXXXXXXXXXXXXXXXXXXXXXXXXXXXXXX..  ",
"XXXXXXXXXXXXXXXXXXXXXXXXXXXXXXXXXXXXXXXXXXXXXXXXXXXXXXXXXXXXXXXXXX..  ",
"XXXXXXXXXXXXXXXXXXXXXXXXXXXXXXXXXXXXXXXXXXXXXXXXXXXXXXXXXXXXXXXXXX..  "
};
