/* XPM */
static char *frameABL[] = {
/* columns rows colors chars-per-pixel */
"70 62 5 1 ",
"  c black",
". c #7B7B7B",
"X c gray74",
"o c gray87",
"O c white",
/* pixels */
"ooOOXXXX......................................ooOOXXXXXXXXXXXXXXXXXXXX",
"ooOOXXXX......................................ooOOXXXXXXXXXXXXXXXXXXXX",
"ooOOXXXX......................................ooOOXXXXXXXXXXXXXXXXXXXX",
"ooOOXXXX......................................ooOOXXXXXXXXXXXXXXXXXXXX",
"ooOOXXXX......................................ooOOXXXXXXXXXXXXXXXXXXXX",
"ooOOXXXX......................................ooOOXXXXXXXXXXXXXXXXXXXX",
"ooOOXXXX......................................ooOOXXXXXXXXXXXXXXXXXXXX",
"ooOOXXXX......................................ooOOXXXXXXXXXXXXXXXXXXXX",
"ooOOXXXX......................................ooOOXXXXXXXXXXXXXXXXXXXX",
"ooOOXXXX......................................ooOOXXXXXXXXXXXXXXXXXXXX",
"ooOOXXXX......................................ooOOXXXXXXXXXXXXXXXXXXXX",
"ooOOXXXX......................................ooOOXXXXXXXXXXXXXXXXXXXX",
"ooOOXXXX......................................ooOOXXXXXXXXXXXXXXXXXXXX",
"ooOOXXXX......................................ooOOXXXXXXXXXXXXXXXXXXXX",
"ooOOXXXX......................................ooOOXXXXXXXXXXXXXXXXXXXX",
"ooOOXXXX......................................ooOOXXXXXXXXXXXXXXXXXXXX",
"ooOOXXXX......................................ooOOXXXXXXXXXXXXXXXXXXXX",
"ooOOXXXX......................................ooOOXXXXXXXXXXXXXXXXXXXX",
"ooOOXXXX......................................ooOOXXXXXXXXXXXXXXXXXXXX",
"ooOOXXXX......................................ooOOXXXXXXXXXXXXXXXXXXXX",
"ooOOXXXX......................................ooOOXXXXXXXXXXXXXXXXXXXX",
"ooOOXXXX......................................ooOOXXXXXXXXXXXXXXXXXXXX",
"ooOOXXXX......................................ooOOXXXXXXXXXXXXXXXXXXXX",
"ooOOXXXX......................................ooOOXXXXXXXXXXXXXXXXXXXX",
"ooOOXXXX......................................ooOOXXXXXXXXXXXXXXXXXXXX",
"ooOOXXXX......................................ooOOXXXXXXXXXXXXXXXXXXXX",
"ooOOXXXX......................................ooOOXXXXXXXXXXXXXXXXXXXX",
"ooOOXXXX......................................ooOOXXXXXXXXXXXXXXXXXXXX",
"ooOOXXXX......................................ooOOXXXXXXXXXXXXXXXXXXXX",
"ooOOXXXX......................................ooOOXXXXXXXXXXXXXXXXXXXX",
"ooOOXXXX......................................ooOOXXXXXXXXXXXXXXXXXXXX",
"ooOOXXXX......................................ooOOXXXXXXXXXXXXXXXXXXXX",
"ooOOXXXX......................................ooOOXXXXXXXXXXXXXXXXXXXX",
"ooOOXXXX......................................ooOOXXXXXXXXXXXXXXXXXXXX",
"ooOOXXXX......................................oo......................",
"ooOOXXXX......................................oo......................",
"ooOOXXXX......................................                        ",
"ooOOXXXX......................................                        ",
"ooOOXXXX..............................................................",
"ooOOXXXX..............................................................",
"ooOOXXXX..............................................................",
"ooOOXXXX..............................................................",
"ooOOXXXX..............................................................",
"ooOOXXXX..............................................................",
"ooOOXXXX..............................................................",
"ooOOXXXX..............................................................",
"ooOOXXXX..............................................................",
"ooOOXXXX..............................................................",
"ooOOXXXX..............................................................",
"ooOOXXXX..............................................................",
"ooOOXXXX..............................................................",
"ooOOXXXX..............................................................",
"ooOOXXXX..............................................................",
"ooOOXXXX..............................................................",
"ooOOXXXXXXXXXXXXXXXXXXXXXXXXXXXXXXXXXXXXXXXXXXXXXXXXXXXXXXXXXXXXXXXXXX",
"ooOOXXXXXXXXXXXXXXXXXXXXXXXXXXXXXXXXXXXXXXXXXXXXXXXXXXXXXXXXXXXXXXXXXX",
"ooOOXXXXXXXXXXXXXXXXXXXXXXXXXXXXXXXXXXXXXXXXXXXXXXXXXXXXXXXXXXXXXXXXXX",
"ooOOXXXXXXXXXXXXXXXXXXXXXXXXXXXXXXXXXXXXXXXXXXXXXXXXXXXXXXXXXXXXXXXXXX",
"oo....................................................................",
"oo....................................................................",
"                                                                      ",
"                                                                      "
};
