/* XPM */
static char *maximizeI[] = {
/* columns rows colors chars-per-pixel */
"36 72 6 1 ",
"  c black",
". c #7B7B7B",
"X c #7B7D7B",
"o c #BDBEBD",
"O c gray87",
"+ c white",
/* pixels */
"....................................",
"....................................",
"....................................",
"....................................",
"++++++++++++++++++++++++++++++  ....",
"++++++++++++++++++++++++++++++  ....",
"++ooooooooooooooooooooooooooXX  ....",
"++ooooooooooooooooooooooooooXX  ....",
"++oooo                  ooooXX  ....",
"++oooo                  ooooXX  ....",
"++oooo                  ooooXX  ....",
"++oooo                  ooooXX  ....",
"++oooo  oooooooooooooo  ooooXX  ....",
"++oooo  oooooooooooooo  ooooXX  ....",
"++oooo  oooooooooooooo  ooooXX  ....",
"++oooo  oooooooooooooo  ooooXX  ....",
"++oooo  oooooooooooooo  ooooXX  ....",
"++oooo  oooooooooooooo  ooooXX  ....",
"++oooo  oooooooooooooo  ooooXX  ....",
"++oooo  oooooooooooooo  ooooXX  ....",
"++oooo  oooooooooooooo  ooooXX  ....",
"++oooo  oooooooooooooo  ooooXX  ....",
"++oooo  oooooooooooooo  ooooXX  ....",
"++oooo  oooooooooooooo  ooooXX  ....",
"++oooo                  ooooXX  ....",
"++oooo                  ooooXX  ....",
"++ooooooooooooooooooooooooooXX  ....",
"++ooooooooooooooooooooooooooXX  ....",
"++XXXXXXXXXXXXXXXXXXXXXXXXXXXX  ....",
"++XXXXXXXXXXXXXXXXXXXXXXXXXXXX  ....",
"                                ....",
"                                ....",
"....................................",
"....................................",
"....................................",
"....................................",
"....................................",
"....................................",
"....................................",
"....................................",
"                              ++....",
"                              ++....",
"  ..........................OO++....",
"  ..........................OO++....",
"  ..ooooooooooooooooooooooooOO++....",
"  ..ooooooooooooooooooooooooOO++....",
"  ..oooo                  ooOO++....",
"  ..oooo                  ooOO++....",
"  ..oooo                  ooOO++....",
"  ..oooo                  ooOO++....",
"  ..oooo  oooooooooooooo  ooOO++....",
"  ..oooo  oooooooooooooo  ooOO++....",
"  ..oooo  oooooooooooooo  ooOO++....",
"  ..oooo  oooooooooooooo  ooOO++....",
"  ..oooo  oooooooooooooo  ooOO++....",
"  ..oooo  oooooooooooooo  ooOO++....",
"  ..oooo  oooooooooooooo  ooOO++....",
"  ..oooo  oooooooooooooo  ooOO++....",
"  ..oooo  oooooooooooooo  ooOO++....",
"  ..oooo  oooooooooooooo  ooOO++....",
"  ..oooo  oooooooooooooo  ooOO++....",
"  ..oooo  oooooooooooooo  ooOO++....",
"  ..oooo                  ooOO++....",
"  ..oooo                  ooOO++....",
"  OOOOOOOOOOOOOOOOOOOOOOOOOOOO++....",
"  OOOOOOOOOOOOOOOOOOOOOOOOOOOO++....",
"++++++++++++++++++++++++++++++++....",
"++++++++++++++++++++++++++++++++....",
"....................................",
"....................................",
"....................................",
"...................................."
};
