/* XPM */
static char *maximizeA[] = {
/* columns rows colors chars-per-pixel */
"36 72 7 1 ",
"  c black",
". c #00007B",
"X c #7B7B7B",
"o c #7B7D7B",
"O c #BDBEBD",
"+ c gray87",
"@ c white",
/* pixels */
"....................................",
"....................................",
"....................................",
"....................................",
"@@@@@@@@@@@@@@@@@@@@@@@@@@@@@@  ....",
"@@@@@@@@@@@@@@@@@@@@@@@@@@@@@@  ....",
"@@OOOOOOOOOOOOOOOOOOOOOOOOOOoo  ....",
"@@OOOOOOOOOOOOOOOOOOOOOOOOOOoo  ....",
"@@OOOO                  OOOOoo  ....",
"@@OOOO                  OOOOoo  ....",
"@@OOOO                  OOOOoo  ....",
"@@OOOO                  OOOOoo  ....",
"@@OOOO  OOOOOOOOOOOOOO  OOOOoo  ....",
"@@OOOO  OOOOOOOOOOOOOO  OOOOoo  ....",
"@@OOOO  OOOOOOOOOOOOOO  OOOOoo  ....",
"@@OOOO  OOOOOOOOOOOOOO  OOOOoo  ....",
"@@OOOO  OOOOOOOOOOOOOO  OOOOoo  ....",
"@@OOOO  OOOOOOOOOOOOOO  OOOOoo  ....",
"@@OOOO  OOOOOOOOOOOOOO  OOOOoo  ....",
"@@OOOO  OOOOOOOOOOOOOO  OOOOoo  ....",
"@@OOOO  OOOOOOOOOOOOOO  OOOOoo  ....",
"@@OOOO  OOOOOOOOOOOOOO  OOOOoo  ....",
"@@OOOO  OOOOOOOOOOOOOO  OOOOoo  ....",
"@@OOOO  OOOOOOOOOOOOOO  OOOOoo  ....",
"@@OOOO                  OOOOoo  ....",
"@@OOOO                  OOOOoo  ....",
"@@OOOOOOOOOOOOOOOOOOOOOOOOOOoo  ....",
"@@OOOOOOOOOOOOOOOOOOOOOOOOOOoo  ....",
"@@oooooooooooooooooooooooooooo  ....",
"@@oooooooooooooooooooooooooooo  ....",
"                                ....",
"                                ....",
"....................................",
"....................................",
"....................................",
"....................................",
"....................................",
"....................................",
"....................................",
"....................................",
"                              @@....",
"                              @@....",
"  XXXXXXXXXXXXXXXXXXXXXXXXXX++@@....",
"  XXXXXXXXXXXXXXXXXXXXXXXXXX++@@....",
"  XXOOOOOOOOOOOOOOOOOOOOOOOO++@@....",
"  XXOOOOOOOOOOOOOOOOOOOOOOOO++@@....",
"  XXOOOO                  OO++@@....",
"  XXOOOO                  OO++@@....",
"  XXOOOO                  OO++@@....",
"  XXOOOO                  OO++@@....",
"  XXOOOO  OOOOOOOOOOOOOO  OO++@@....",
"  XXOOOO  OOOOOOOOOOOOOO  OO++@@....",
"  XXOOOO  OOOOOOOOOOOOOO  OO++@@....",
"  XXOOOO  OOOOOOOOOOOOOO  OO++@@....",
"  XXOOOO  OOOOOOOOOOOOOO  OO++@@....",
"  XXOOOO  OOOOOOOOOOOOOO  OO++@@....",
"  XXOOOO  OOOOOOOOOOOOOO  OO++@@....",
"  XXOOOO  OOOOOOOOOOOOOO  OO++@@....",
"  XXOOOO  OOOOOOOOOOOOOO  OO++@@....",
"  XXOOOO  OOOOOOOOOOOOOO  OO++@@....",
"  XXOOOO  OOOOOOOOOOOOOO  OO++@@....",
"  XXOOOO  OOOOOOOOOOOOOO  OO++@@....",
"  XXOOOO                  OO++@@....",
"  XXOOOO                  OO++@@....",
"  ++++++++++++++++++++++++++++@@....",
"  ++++++++++++++++++++++++++++@@....",
"@@@@@@@@@@@@@@@@@@@@@@@@@@@@@@@@....",
"@@@@@@@@@@@@@@@@@@@@@@@@@@@@@@@@....",
"....................................",
"....................................",
"....................................",
"...................................."
};
