/* XPM */
static char *minimizeA[] = {
/* columns rows colors chars-per-pixel */
"36 72 6 1 ",
"  c black",
". c #00007B",
"X c #7B7B7B",
"o c gray74",
"O c gray87",
"+ c white",
/* pixels */
"....................................",
"....................................",
"....................................",
"....................................",
"....++++++++++++++++++++++++++++++  ",
"....++++++++++++++++++++++++++++++  ",
"....++OOOOOOOOOOOOOOOOOOOOOOOOOOXX  ",
"....++OOOOOOOOOOOOOOOOOOOOOOOOOOXX  ",
"....++OOooooooooooooooooooooooooXX  ",
"....++OOooooooooooooooooooooooooXX  ",
"....++OOooooooooooooooooooooooooXX  ",
"....++OOooooooooooooooooooooooooXX  ",
"....++OOooooooooooooooooooooooooXX  ",
"....++OOooooooooooooooooooooooooXX  ",
"....++OOooooooooooooooooooooooooXX  ",
"....++OOooooooooooooooooooooooooXX  ",
"....++OOooooooooooooooooooooooooXX  ",
"....++OOooooooooooooooooooooooooXX  ",
"....++OOooooooooooooooooooooooooXX  ",
"....++OOooooooooooooooooooooooooXX  ",
"....++OOooooooooooooooooooooooooXX  ",
"....++OOooooooooooooooooooooooooXX  ",
"....++OOoooo            ooooooooXX  ",
"....++OOoooo            ooooooooXX  ",
"....++OOoooo            ooooooooXX  ",
"....++OOoooo            ooooooooXX  ",
"....++OOooooooooooooooooooooooooXX  ",
"....++OOooooooooooooooooooooooooXX  ",
"....++XXXXXXXXXXXXXXXXXXXXXXXXXXXX  ",
"....++XXXXXXXXXXXXXXXXXXXXXXXXXXXX  ",
"....                                ",
"....                                ",
"....................................",
"....................................",
"....................................",
"....................................",
"....................................",
"....................................",
"....................................",
"....................................",
"....                              ++",
"....                              ++",
"....  XXXXXXXXXXXXXXXXXXXXXXXXXXOO++",
"....  XXXXXXXXXXXXXXXXXXXXXXXXXXOO++",
"....  XXooooooooooooooooooooooooOO++",
"....  XXooooooooooooooooooooooooOO++",
"....  XXooooooooooooooooooooooooOO++",
"....  XXooooooooooooooooooooooooOO++",
"....  XXooooooooooooooooooooooooOO++",
"....  XXooooooooooooooooooooooooOO++",
"....  XXooooooooooooooooooooooooOO++",
"....  XXooooooooooooooooooooooooOO++",
"....  XXooooooooooooooooooooooooOO++",
"....  XXooooooooooooooooooooooooOO++",
"....  XXooooooooooooooooooooooooOO++",
"....  XXooooooooooooooooooooooooOO++",
"....  XXooooooooooooooooooooooooOO++",
"....  XXooooooooooooooooooooooooOO++",
"....  XXooooooooooooooooooooooooOO++",
"....  XXooooooooooooooooooooooooOO++",
"....  XXoooooo            ooooooOO++",
"....  XXoooooo            ooooooOO++",
"....  XXoooooo            ooooooOO++",
"....  XXoooooo            ooooooOO++",
"....  OOOOOOOOOOOOOOOOOOOOOOOOOOOO++",
"....  OOOOOOOOOOOOOOOOOOOOOOOOOOOO++",
"....++++++++++++++++++++++++++++++++",
"....++++++++++++++++++++++++++++++++",
"....................................",
"....................................",
"....................................",
"...................................."
};
