/* XPM */
static char *minimizeI[] = {
/* columns rows colors chars-per-pixel */
"36 72 5 1 ",
"  c black",
". c #7B7B7B",
"X c gray74",
"o c gray87",
"O c white",
/* pixels */
"....................................",
"....................................",
"....................................",
"....................................",
"....OOOOOOOOOOOOOOOOOOOOOOOOOOOOOO  ",
"....OOOOOOOOOOOOOOOOOOOOOOOOOOOOOO  ",
"....OOoooooooooooooooooooooooooo..  ",
"....OOoooooooooooooooooooooooooo..  ",
"....OOooXXXXXXXXXXXXXXXXXXXXXXXX..  ",
"....OOooXXXXXXXXXXXXXXXXXXXXXXXX..  ",
"....OOooXXXXXXXXXXXXXXXXXXXXXXXX..  ",
"....OOooXXXXXXXXXXXXXXXXXXXXXXXX..  ",
"....OOooXXXXXXXXXXXXXXXXXXXXXXXX..  ",
"....OOooXXXXXXXXXXXXXXXXXXXXXXXX..  ",
"....OOooXXXXXXXXXXXXXXXXXXXXXXXX..  ",
"....OOooXXXXXXXXXXXXXXXXXXXXXXXX..  ",
"....OOooXXXXXXXXXXXXXXXXXXXXXXXX..  ",
"....OOooXXXXXXXXXXXXXXXXXXXXXXXX..  ",
"....OOooXXXXXXXXXXXXXXXXXXXXXXXX..  ",
"....OOooXXXXXXXXXXXXXXXXXXXXXXXX..  ",
"....OOooXXXXXXXXXXXXXXXXXXXXXXXX..  ",
"....OOooXXXXXXXXXXXXXXXXXXXXXXXX..  ",
"....OOooXXXX            XXXXXXXX..  ",
"....OOooXXXX            XXXXXXXX..  ",
"....OOooXXXX            XXXXXXXX..  ",
"....OOooXXXX            XXXXXXXX..  ",
"....OOooXXXXXXXXXXXXXXXXXXXXXXXX..  ",
"....OOooXXXXXXXXXXXXXXXXXXXXXXXX..  ",
"....OO............................  ",
"....OO............................  ",
"....                                ",
"....                                ",
"....................................",
"....................................",
"....................................",
"....................................",
"....................................",
"....................................",
"....................................",
"....................................",
"....                              OO",
"....                              OO",
"....  ..........................ooOO",
"....  ..........................ooOO",
"....  ..XXXXXXXXXXXXXXXXXXXXXXXXooOO",
"....  ..XXXXXXXXXXXXXXXXXXXXXXXXooOO",
"....  ..XXXXXXXXXXXXXXXXXXXXXXXXooOO",
"....  ..XXXXXXXXXXXXXXXXXXXXXXXXooOO",
"....  ..XXXXXXXXXXXXXXXXXXXXXXXXooOO",
"....  ..XXXXXXXXXXXXXXXXXXXXXXXXooOO",
"....  ..XXXXXXXXXXXXXXXXXXXXXXXXooOO",
"....  ..XXXXXXXXXXXXXXXXXXXXXXXXooOO",
"....  ..XXXXXXXXXXXXXXXXXXXXXXXXooOO",
"....  ..XXXXXXXXXXXXXXXXXXXXXXXXooOO",
"....  ..XXXXXXXXXXXXXXXXXXXXXXXXooOO",
"....  ..XXXXXXXXXXXXXXXXXXXXXXXXooOO",
"....  ..XXXXXXXXXXXXXXXXXXXXXXXXooOO",
"....  ..XXXXXXXXXXXXXXXXXXXXXXXXooOO",
"....  ..XXXXXXXXXXXXXXXXXXXXXXXXooOO",
"....  ..XXXXXXXXXXXXXXXXXXXXXXXXooOO",
"....  ..XXXXXX            XXXXXXooOO",
"....  ..XXXXXX            XXXXXXooOO",
"....  ..XXXXXX            XXXXXXooOO",
"....  ..XXXXXX            XXXXXXooOO",
"....  ooooooooooooooooooooooooooooOO",
"....  ooooooooooooooooooooooooooooOO",
"....OOOOOOOOOOOOOOOOOOOOOOOOOOOOOOOO",
"....OOOOOOOOOOOOOOOOOOOOOOOOOOOOOOOO",
"....................................",
"....................................",
"....................................",
"...................................."
};
