/* XPM */
static char *restoreI[] = {
/* columns rows colors chars-per-pixel */
"36 72 5 1 ",
"  c black",
". c #7B7B7B",
"X c gray74",
"o c gray87",
"O c white",
/* pixels */
"....................................",
"....................................",
"....................................",
"....................................",
"OOOOOOOOOOOOOOOOOOOOOOOOOOOOOO  ....",
"OOOOOOOOOOOOOOOOOOOOOOOOOOOOOO  ....",
"OOoooooooooooooooooooooooooo..  ....",
"OOoooooooooooooooooooooooooo..  ....",
"OOooXXXXXX            XXXXXX..  ....",
"OOooXXXXXX            XXXXXX..  ....",
"OOooXXXXXX            XXXXXX..  ....",
"OOooXXXXXX            XXXXXX..  ....",
"OOooXXXXXX  XXXXXXXX  XXXXXX..  ....",
"OOooXXXXXX  XXXXXXXX  XXXXXX..  ....",
"OOooXX            XX  XXXXXX..  ....",
"OOooXX            XX  XXXXXX..  ....",
"OOooXX            XX  XXXXXX..  ....",
"OOooXX            XX  XXXXXX..  ....",
"OOooXX  XXXXXXXX      XXXXXX..  ....",
"OOooXX  XXXXXXXX      XXXXXX..  ....",
"OOooXX  XXXXXXXX  XXXXXXXXXX..  ....",
"OOooXX  XXXXXXXX  XXXXXXXXXX..  ....",
"OOooXX  XXXXXXXX  XXXXXXXXXX..  ....",
"OOooXX  XXXXXXXX  XXXXXXXXXX..  ....",
"OOooXX            XXXXXXXXXX..  ....",
"OOooXX            XXXXXXXXXX..  ....",
"OOooXXXXXXXXXXXXXXXXXXXXXXXX..  ....",
"OOooXXXXXXXXXXXXXXXXXXXXXXXX..  ....",
"OO............................  ....",
"OO............................  ....",
"                                ....",
"                                ....",
"....................................",
"....................................",
"....................................",
"....................................",
"....................................",
"....................................",
"....................................",
"....................................",
"                              OO....",
"                              OO....",
"  ..........................ooOO....",
"  ..........................ooOO....",
"  ..XXXXXXXXXXXXXXXXXXXXXXXXooOO....",
"  ..XXXXXXXXXXXXXXXXXXXXXXXXooOO....",
"  ..XXXXXXXX            XXXXooOO....",
"  ..XXXXXXXX            XXXXooOO....",
"  ..XXXXXXXX            XXXXooOO....",
"  ..XXXXXXXX            XXXXooOO....",
"  ..XXXXXXXX  XXXXXXXX  XXXXooOO....",
"  ..XXXXXXXX  XXXXXXXX  XXXXooOO....",
"  ..XXXX            XX  XXXXooOO....",
"  ..XXXX            XX  XXXXooOO....",
"  ..XXXX            XX  XXXXooOO....",
"  ..XXXX            XX  XXXXooOO....",
"  ..XXXX  XXXXXXXX      XXXXooOO....",
"  ..XXXX  XXXXXXXX      XXXXooOO....",
"  ..XXXX  XXXXXXXX  XXXXXXXXooOO....",
"  ..XXXX  XXXXXXXX  XXXXXXXXooOO....",
"  ..XXXX  XXXXXXXX  XXXXXXXXooOO....",
"  ..XXXX  XXXXXXXX  XXXXXXXXooOO....",
"  ..XXXX            XXXXXXXXooOO....",
"  ..XXXX            XXXXXXXXooOO....",
"  ooooooooooooooooooooooooooooOO....",
"  ooooooooooooooooooooooooooooOO....",
"OOOOOOOOOOOOOOOOOOOOOOOOOOOOOOOO....",
"OOOOOOOOOOOOOOOOOOOOOOOOOOOOOOOO....",
"....................................",
"....................................",
"....................................",
"...................................."
};
