/* XPM */
static char *restoreA[] = {
/* columns rows colors chars-per-pixel */
"36 72 6 1 ",
"  c black",
". c #00007B",
"X c #7B7B7B",
"o c gray74",
"O c gray87",
"+ c white",
/* pixels */
"....................................",
"....................................",
"....................................",
"....................................",
"++++++++++++++++++++++++++++++  ....",
"++++++++++++++++++++++++++++++  ....",
"++OOOOOOOOOOOOOOOOOOOOOOOOOOXX  ....",
"++OOOOOOOOOOOOOOOOOOOOOOOOOOXX  ....",
"++OOoooooo            ooooooXX  ....",
"++OOoooooo            ooooooXX  ....",
"++OOoooooo            ooooooXX  ....",
"++OOoooooo            ooooooXX  ....",
"++OOoooooo  oooooooo  ooooooXX  ....",
"++OOoooooo  oooooooo  ooooooXX  ....",
"++OOoo            oo  ooooooXX  ....",
"++OOoo            oo  ooooooXX  ....",
"++OOoo            oo  ooooooXX  ....",
"++OOoo            oo  ooooooXX  ....",
"++OOoo  oooooooo      ooooooXX  ....",
"++OOoo  oooooooo      ooooooXX  ....",
"++OOoo  oooooooo  ooooooooooXX  ....",
"++OOoo  oooooooo  ooooooooooXX  ....",
"++OOoo  oooooooo  ooooooooooXX  ....",
"++OOoo  oooooooo  ooooooooooXX  ....",
"++OOoo            ooooooooooXX  ....",
"++OOoo            ooooooooooXX  ....",
"++OOooooooooooooooooooooooooXX  ....",
"++OOooooooooooooooooooooooooXX  ....",
"++XXXXXXXXXXXXXXXXXXXXXXXXXXXX  ....",
"++XXXXXXXXXXXXXXXXXXXXXXXXXXXX  ....",
"                                ....",
"                                ....",
"....................................",
"....................................",
"....................................",
"....................................",
"....................................",
"....................................",
"....................................",
"....................................",
"                              ++....",
"                              ++....",
"  XXXXXXXXXXXXXXXXXXXXXXXXXXOO++....",
"  XXXXXXXXXXXXXXXXXXXXXXXXXXOO++....",
"  XXooooooooooooooooooooooooOO++....",
"  XXooooooooooooooooooooooooOO++....",
"  XXoooooooo            ooooOO++....",
"  XXoooooooo            ooooOO++....",
"  XXoooooooo            ooooOO++....",
"  XXoooooooo            ooooOO++....",
"  XXoooooooo  oooooooo  ooooOO++....",
"  XXoooooooo  oooooooo  ooooOO++....",
"  XXoooo            oo  ooooOO++....",
"  XXoooo            oo  ooooOO++....",
"  XXoooo            oo  ooooOO++....",
"  XXoooo            oo  ooooOO++....",
"  XXoooo  oooooooo      ooooOO++....",
"  XXoooo  oooooooo      ooooOO++....",
"  XXoooo  oooooooo  ooooooooOO++....",
"  XXoooo  oooooooo  ooooooooOO++....",
"  XXoooo  oooooooo  ooooooooOO++....",
"  XXoooo  oooooooo  ooooooooOO++....",
"  XXoooo            ooooooooOO++....",
"  XXoooo            ooooooooOO++....",
"  OOOOOOOOOOOOOOOOOOOOOOOOOOOO++....",
"  OOOOOOOOOOOOOOOOOOOOOOOOOOOO++....",
"++++++++++++++++++++++++++++++++....",
"++++++++++++++++++++++++++++++++....",
"....................................",
"....................................",
"....................................",
"...................................."
};
