/* XPM */
static char *mail[] = {
/* columns rows colors chars-per-pixel */
"32 32 3 1 ",
"  c #C0C0C0",
". c black",
"X c #808080",
/* pixels */
"                                ",
"                                ",
"                                ",
"                                ",
"                                ",
"                                ",
"  ..........................    ",
"  ..........................    ",
"  ..                      ..XX  ",
"  ..                      ..XX  ",
"  ....                  ....XX  ",
"  ....                  ....XX  ",
"  ..  ..              ..  ..XX  ",
"  ..  ..              ..  ..XX  ",
"  ..    ..          ..    ..XX  ",
"  ..    ..          ..    ..XX  ",
"  ..    ....      ....    ..XX  ",
"  ..    ....      ....    ..XX  ",
"  ..  ..    ......    ..  ..XX  ",
"  ..  ..    ......    ..  ..XX  ",
"  ....                  ....XX  ",
"  ....                  ....XX  ",
"  ..........................XX  ",
"  ..........................XX  ",
"    XXXXXXXXXXXXXXXXXXXXXXXXXX  ",
"    XXXXXXXXXXXXXXXXXXXXXXXXXX  ",
"                                ",
"                                ",
"                                ",
"                                ",
"                                ",
"                                "
};
