/* XPM */
static char *a[] = {
/* columns rows colors chars-per-pixel */
"18 40 2 1 ",
"  c gray80",
". c black",
/* pixels */
"                  ",
"                  ",
"        ..        ",
"        ..        ",
"      ..  ..      ",
"      ..  ..      ",
"    ..      ..    ",
"    ..      ..    ",
"  ..          ..  ",
"  ..          ..  ",
"  ..          ..  ",
"  ..          ..  ",
"  ..............  ",
"  ..............  ",
"  ..          ..  ",
"  ..          ..  ",
"  ..          ..  ",
"  ..          ..  ",
"                  ",
"                  ",
"                  ",
"                  ",
"                  ",
"                  ",
"                  ",
"                  ",
"                  ",
"                  ",
"                  ",
"                  ",
"                  ",
"                  ",
"                  ",
"                  ",
"                  ",
"                  ",
"                  ",
"                  ",
"                  ",
"                  "
};
