/* XPM */
static char *dot[] = {
/* columns rows colors chars-per-pixel */
"12 40 2 1 ",
"  c gray80",
". c black",
/* pixels */
"            ",
"            ",
"            ",
"            ",
"            ",
"            ",
"            ",
"            ",
"            ",
"            ",
"            ",
"            ",
"            ",
"            ",
"            ",
"            ",
"            ",
"            ",
"            ",
"            ",
"            ",
"            ",
"            ",
"            ",
"            ",
"            ",
"            ",
"            ",
"            ",
"            ",
"            ",
"            ",
"            ",
"            ",
"    ....    ",
"    ....    ",
"    ....    ",
"    ....    ",
"            ",
"            "
};
