/* XPM */
static char *n0[] = {
/* columns rows colors chars-per-pixel */
"28 40 2 1 ",
"  c gray80",
". c black",
/* pixels */
"                            ",
"                            ",
"    ....................    ",
"    ....................    ",
"  ..  ................  ..  ",
"  ..  ................  ..  ",
"  ....                ....  ",
"  ....                ....  ",
"  ....                ....  ",
"  ....                ....  ",
"  ....                ....  ",
"  ....                ....  ",
"  ....                ....  ",
"  ....                ....  ",
"  ....                ....  ",
"  ....                ....  ",
"  ..                    ..  ",
"  ..                    ..  ",
"                            ",
"                            ",
"                            ",
"                            ",
"  ..                    ..  ",
"  ..                    ..  ",
"  ....                ....  ",
"  ....                ....  ",
"  ....                ....  ",
"  ....                ....  ",
"  ....                ....  ",
"  ....                ....  ",
"  ....                ....  ",
"  ....                ....  ",
"  ....                ....  ",
"  ....                ....  ",
"  ..  ................  ..  ",
"  ..  ................  ..  ",
"    ....................    ",
"    ....................    ",
"                            ",
"                            "
};
